;FLAVOR:Marlin
;TIME:10931
;Filament used: 10.0142m
;Layer height: 0.2
;MINX:15.083
;MINY:28.374
;MINZ:0.2
;MAXX:159.245
;MAXY:176.08
;MAXZ:36.2
;Generated with Cura_SteamEngine 4.13.1
M82 ;absolute extrusion mode
G21 ; set units to millimeters
G90 ; use absolute positioning
M82 ; absolute extrusion mode
M104 S200 ; set extruder temp
M140 S60 ; set bed temp
M190 S60 ; wait for bed temp
M109 S200 ; wait for extruder temp
G28 W ; home all without mesh bed level
G80 ; mesh bed leveling
G92 E0.0 ; reset extruder distance position
G1 Y-3.0 F1000.0 ; go outside print area
G1 X60.0 E9.0 F1000.0 ; intro line
G1 X100.0 E21.5 F1000.0 ; intro line
G92 E0.0 ; reset extruder distance position
G92 E0
G92 E0
G1 F2100 E-0.8
;LAYER_COUNT:181
;LAYER:0
M107
G0 F3600 X19.588 Y32.243 Z0.2
;TYPE:SKIRT
G1 F2100 E0
G1 F1800 X20.054 Y32.049 E0.01679
G1 X20.546 Y31.93 E0.03362
G1 X21.087 Y31.888 E0.05167
G1 X21.565 Y31.881 E0.06757
G1 X23.808 Y31.879 E0.14217
G1 X74.081 Y31.881 E1.81426
G1 X74.779 Y31.891 E1.83748
G1 X75.044 Y31.906 E1.84631
G1 X75.801 Y31.98 E1.87161
G1 X77.123 Y32.13 E1.91586
G1 X79.801 Y32.358 E2.00525
G1 X82.551 Y32.515 E2.09686
G1 X85.303 Y32.594 E2.18843
G1 X88.021 Y32.594 E2.27884
G1 X90.773 Y32.517 E2.3704
G1 X93.489 Y32.364 E2.46088
G1 X96.228 Y32.132 E2.55231
G1 X98.976 Y31.82 E2.64429
G1 X101.651 Y31.441 E2.73415
G1 X104.347 Y30.979 E2.82513
G1 X107.04 Y30.441 E2.91647
G1 X109.7 Y29.828 E3.00726
G1 X112.35 Y29.14 E3.09832
G1 X113.821 Y28.723 E3.14917
G1 X114.545 Y28.512 E3.17426
G1 X115.04 Y28.409 E3.19107
G1 X115.673 Y28.375 E3.21216
G1 X154.779 Y28.374 E4.51283
G1 X155.477 Y28.384 E4.53605
G1 X155.98 Y28.431 E4.55285
G1 X156.47 Y28.557 E4.56968
G1 X156.934 Y28.759 E4.58651
G1 X157.36 Y29.031 E4.60332
G1 X157.738 Y29.366 E4.62012
G1 X158.058 Y29.757 E4.63692
G1 X158.313 Y30.194 E4.65375
G1 X158.496 Y30.665 E4.67056
G1 X158.603 Y31.159 E4.68737
G1 X158.639 Y31.814 E4.70919
G1 X158.64 Y70.913 E6.00962
G1 X158.63 Y71.61 E6.03281
G1 X158.611 Y71.931 E6.0435
G1 X158.545 Y72.598 E6.0658
G1 X158.309 Y75.384 E6.15879
G1 X158.156 Y78.1 E6.24927
G1 X158.079 Y80.85 E6.34077
G1 X158.081 Y83.568 E6.43117
G1 X158.16 Y86.322 E6.52281
G1 X158.316 Y89.068 E6.61429
G1 X158.549 Y91.782 E6.70489
G1 X158.855 Y94.475 E6.79503
G1 X159.046 Y95.883 E6.84229
G1 X159.203 Y96.978 E6.87908
G1 X159.244 Y97.665 E6.90198
G1 X159.245 Y136.736 E8.20148
G1 X159.236 Y137.463 E8.22566
G1 X159.19 Y137.966 E8.24246
G1 X159.065 Y138.456 E8.25928
G1 X158.864 Y138.92 E8.2761
G1 X158.593 Y139.347 E8.29292
G1 X158.258 Y139.726 E8.30975
G1 X157.868 Y140.047 E8.32655
G1 X157.432 Y140.303 E8.34336
G1 X156.961 Y140.486 E8.36017
G1 X156.467 Y140.594 E8.37699
G1 X156.046 Y140.624 E8.39103
G1 X153.273 Y140.746 E8.48335
G1 X150.53 Y140.943 E8.57481
G1 X147.819 Y141.217 E8.66544
G1 X145.092 Y141.569 E8.75689
G1 X142.369 Y141.999 E8.84858
G1 X139.707 Y142.498 E8.93866
G1 X137.021 Y143.081 E9.03008
G1 X134.389 Y143.729 E9.12024
G1 X131.718 Y144.468 E9.21241
G1 X129.126 Y145.266 E9.30261
G1 X126.532 Y146.144 E9.3937
G1 X123.934 Y147.107 E9.48585
G1 X121.403 Y148.127 E9.57661
G1 X118.91 Y149.217 E9.66711
G1 X116.437 Y150.379 E9.75799
G1 X113.979 Y151.622 E9.8496
G1 X111.553 Y152.935 E9.94135
G1 X109.204 Y154.295 E10.03163
G1 X106.891 Y155.722 E10.12202
G1 X104.573 Y157.243 E10.21424
G1 X102.353 Y158.794 E10.30431
G1 X100.141 Y160.434 E10.3959
G1 X97.998 Y162.117 E10.48653
G1 X95.868 Y163.891 E10.57872
G1 X93.846 Y165.674 E10.66839
G1 X91.817 Y167.567 E10.76068
G1 X89.882 Y169.478 E10.85113
G1 X87.992 Y171.453 E10.94206
G1 X86.301 Y173.332 E11.02613
G1 X85.865 Y173.775 E11.04681
G1 X85.489 Y174.115 E11.06367
G1 X85.023 Y174.48 E11.08335
G1 X84.581 Y174.784 E11.1012
G1 X84.07 Y175.085 E11.12092
G1 X83.473 Y175.375 E11.143
G1 X82.908 Y175.599 E11.16321
G1 X82.421 Y175.752 E11.18019
G1 X81.793 Y175.908 E11.20171
G1 X81.407 Y175.973 E11.21473
G1 X80.828 Y176.043 E11.23413
G1 X80.493 Y176.066 E11.2453
G1 X79.574 Y176.08 E11.27587
G1 X23.914 Y176.08 E13.12713
G1 X23.03 Y176.068 E13.15653
G1 X22.362 Y176.018 E13.17881
G1 X21.806 Y175.934 E13.19751
G1 X21.167 Y175.792 E13.21929
G1 X20.567 Y175.61 E13.24014
G1 X19.725 Y175.261 E13.27046
G1 X19.275 Y175.031 E13.28726
G1 X18.702 Y174.678 E13.30965
G1 X18.277 Y174.377 E13.32697
G1 X17.799 Y173.981 E13.34762
G1 X17.466 Y173.658 E13.36305
G1 X17.112 Y173.278 E13.38032
G1 X16.682 Y172.753 E13.40289
G1 X16.301 Y172.199 E13.42525
G1 X15.976 Y171.61 E13.44763
G1 X15.683 Y170.966 E13.47116
G1 X15.453 Y170.337 E13.49343
G1 X15.284 Y169.739 E13.5141
G1 X15.219 Y169.415 E13.52509
G1 X15.141 Y168.893 E13.54265
G1 X15.086 Y168.224 E13.56497
G1 X15.083 Y167.691 E13.5827
G1 X15.123 Y167.012 E13.60533
G1 X15.191 Y166.484 E13.62303
G1 X15.295 Y165.938 E13.64152
G1 X23.744 Y125.879 E15.0032
G1 X24.282 Y123.142 E15.09597
G1 X24.729 Y120.463 E15.18631
G1 X25.104 Y117.741 E15.2777
G1 X25.401 Y115.032 E15.36834
G1 X25.621 Y112.292 E15.45977
G1 X25.765 Y109.54 E15.55142
G1 X25.831 Y106.823 E15.64182
G1 X25.819 Y104.07 E15.73338
G1 X25.731 Y101.354 E15.82377
G1 X25.563 Y98.605 E15.91537
G1 X25.322 Y95.906 E16.00549
G1 X24.857 Y92.133 E16.13193
G1 X24.734 Y91.275 E16.16076
G1 X24.703 Y90.915 E16.17278
G1 X24.675 Y89.938 E16.20529
G1 X24.639 Y88.224 E16.26231
G1 X24.503 Y85.472 E16.35395
G1 X24.292 Y82.762 E16.44436
G1 X24.001 Y80.025 E16.53591
G1 X23.638 Y77.331 E16.62632
G1 X23.191 Y74.604 E16.71823
G1 X22.672 Y71.915 E16.80932
G1 X22.082 Y69.268 E16.89952
G1 X21.416 Y66.625 E16.99017
G1 X20.666 Y63.977 E17.08171
G1 X19.84 Y61.34 E17.17362
G1 X18.948 Y58.756 E17.26454
G1 X17.942 Y56.091 E17.35928
G1 X17.801 Y55.605 E17.37611
G1 X17.738 Y55.068 E17.3941
G1 X17.726 Y54.439 E17.41502
G1 X17.725 Y35.838 E18.03369
G1 X17.735 Y35.157 E18.05635
G1 X17.783 Y34.654 E18.07315
G1 X17.909 Y34.164 E18.08998
G1 X18.11 Y33.7 E18.1068
G1 X18.382 Y33.274 E18.12361
G1 X18.774 Y32.838 E18.14311
G1 X19.157 Y32.508 E18.15992
G1 X19.588 Y32.243 E18.17675
G0 F3600 X21.125 Y35.281
;TYPE:SUPPORT
G1 F1800 X22.824 Y35.281 E18.23326
G1 X22.825 Y54.881 E18.88516
G1 X21.126 Y54.881 E18.94167
G1 X21.125 Y35.281 E19.59357
G0 F3600 X21.336 Y35.441
G1 F1800 X21.336 Y54.721 E20.23482
G0 F3600 X21.284 Y53.34
G1 F1800 X22.664 Y53.34 E20.28072
G0 F3600 X22.664 Y50.673
G1 F1800 X21.284 Y50.673 E20.32662
G0 F3600 X21.284 Y48.006
G1 F1800 X22.664 Y48.006 E20.37252
G0 F3600 X22.664 Y45.339
G1 F1800 X21.284 Y45.339 E20.41842
G0 F3600 X21.284 Y42.672
G1 F1800 X22.664 Y42.672 E20.46432
G0 F3600 X22.664 Y40.005
G1 F1800 X21.284 Y40.005 E20.51022
G0 F3600 X21.284 Y37.338
G1 F1800 X22.664 Y37.338 E20.55612
G1 F2100 E19.75612
G0 F3600 X23.147 Y34.924
G0 X72.133 Y34.42
G0 X72.96 Y35.281
G1 F2100 E20.55612
G1 F1800 X74.659 Y35.281 E20.61263
G1 X74.66 Y54.881 E21.26452
G1 X72.961 Y54.881 E21.32103
G1 X72.96 Y35.281 E21.97293
G0 F3600 X73.12 Y37.338
G1 F1800 X74.5 Y37.338 E22.01883
G0 F3600 X74.5 Y40.005
G1 F1800 X73.12 Y40.005 E22.06473
G0 F3600 X73.12 Y42.672
G1 F1800 X74.5 Y42.672 E22.11063
G0 F3600 X74.5 Y45.339
G1 F1800 X73.12 Y45.339 E22.15653
G0 F3600 X73.12 Y48.006
G1 F1800 X74.5 Y48.006 E22.20243
G0 F3600 X74.5 Y50.673
G1 F1800 X73.12 Y50.673 E22.24833
G0 F3600 X73.12 Y53.34
G1 F1800 X74.5 Y53.34 E22.29422
G0 F3600 X68.387 Y62.997
G1 F1800 X68.387 Y65.597 E22.3807
G1 X67.689 Y65.597 E22.40392
G1 X67.689 Y62.997 E22.49039
G1 X68.387 Y62.997 E22.51361
G0 F3600 X68.227 Y64.008
G1 F1800 X67.849 Y64.008 E22.52618
G1 F2100 E21.72618
;MESH:customized_sanding_stick_20.0_12.0_40.0_round_base_round_base.stl
G0 F3600 X67.849 Y55.746
G0 X67.849 Y54.461
G0 X71.307 Y54.411
G1 F2100 E22.52618
G0 F3600 X71.377 Y54.481
;TYPE:WALL-INNER
G1 F1800 X24.409 Y54.481 E24.08834
G1 X24.408 Y35.681 E24.71363
G1 X71.376 Y35.681 E26.2758
G1 X71.377 Y54.481 E26.90109
G0 F3600 X71.777 Y54.881
;TYPE:WALL-OUTER
G1 F1800 X24.009 Y54.881 E28.48986
G1 X24.008 Y35.281 E29.14175
G1 X71.776 Y35.281 E30.73052
G1 X71.777 Y54.881 E31.38242
G0 F3600 X71.577 Y54.881
G0 X70.987 Y54.091
;TYPE:SKIN
G1 F1800 X24.799 Y54.091 E32.91864
G1 X24.798 Y36.071 E33.51799
G1 X70.986 Y36.071 E35.05421
G1 X70.987 Y54.091 E35.65356
G0 F3600 X70.806 Y36.865
G1 F1800 X70.191 Y36.25 E35.68248
G0 F3600 X69.625 Y36.25
G1 F1800 X70.806 Y37.43 E35.73801
G0 F3600 X70.806 Y37.996
G1 F1800 X69.06 Y36.25 E35.82014
G0 F3600 X68.494 Y36.25
G1 F1800 X70.806 Y38.562 E35.92889
G0 F3600 X70.806 Y39.127
G1 F1800 X67.928 Y36.25 E36.06424
G0 F3600 X67.363 Y36.25
G1 F1800 X70.806 Y39.693 E36.22618
G0 F3600 X70.806 Y40.259
G1 F1800 X66.797 Y36.25 E36.41476
G0 F3600 X66.231 Y36.25
G1 F1800 X70.806 Y40.824 E36.62993
G0 F3600 X70.806 Y41.39
G1 F1800 X65.666 Y36.25 E36.8717
G0 F3600 X65.1 Y36.25
G1 F1800 X70.806 Y41.956 E37.14009
G0 F3600 X70.806 Y42.521
G1 F1800 X64.534 Y36.25 E37.43508
G0 F3600 X63.969 Y36.25
G1 F1800 X70.806 Y43.087 E37.75667
G0 F3600 X70.806 Y43.653
G1 F1800 X63.403 Y36.25 E38.10489
G0 F3600 X62.837 Y36.25
G1 F1800 X70.806 Y44.218 E38.4797
G0 F3600 X70.806 Y44.784
G1 F1800 X62.272 Y36.25 E38.88111
G0 F3600 X61.706 Y36.25
G1 F1800 X70.806 Y45.35 E39.30915
G0 F3600 X70.806 Y45.915
G1 F1800 X61.14 Y36.25 E39.76379
G0 F3600 X60.575 Y36.25
G1 F1800 X70.806 Y46.481 E40.24502
G0 F3600 X70.806 Y47.047
G1 F1800 X60.009 Y36.25 E40.75288
G0 F3600 X59.443 Y36.25
G1 F1800 X70.806 Y47.613 E41.28736
G0 F3600 X70.806 Y48.178
G1 F1800 X58.877 Y36.25 E41.84844
G0 F3600 X58.312 Y36.25
G1 F1800 X70.806 Y48.744 E42.43612
G0 F3600 X70.806 Y49.31
G1 F1800 X57.746 Y36.25 E43.05042
G0 F3600 X57.18 Y36.25
G1 F1800 X70.806 Y49.875 E43.69132
G0 F3600 X70.806 Y50.441
G1 F1800 X56.615 Y36.25 E44.35882
G0 F3600 X56.049 Y36.25
G1 F1800 X70.806 Y51.007 E45.05295
G0 F3600 X70.806 Y51.572
G1 F1800 X55.483 Y36.25 E45.77367
G0 F3600 X54.918 Y36.25
G1 F1800 X70.806 Y52.138 E46.52099
G0 F3600 X70.806 Y52.704
G1 F1800 X54.352 Y36.25 E47.29494
G0 F3600 X53.786 Y36.25
G1 F1800 X70.806 Y53.269 E48.09548
G0 F3600 X70.806 Y53.835
G1 F1800 X53.221 Y36.25 E48.92263
G0 F3600 X52.655 Y36.25
G1 F1800 X70.315 Y53.91 E49.7533
G0 F3600 X69.749 Y53.91
G1 F1800 X52.089 Y36.25 E50.58397
G0 F3600 X51.524 Y36.25
G1 F1800 X69.184 Y53.91 E51.41465
G0 F3600 X68.618 Y53.91
G1 F1800 X50.958 Y36.25 E52.24532
G0 F3600 X50.392 Y36.25
G1 F1800 X68.052 Y53.91 E53.07599
G0 F3600 X67.486 Y53.91
G1 F1800 X49.826 Y36.25 E53.90666
G0 F3600 X49.261 Y36.25
G1 F1800 X66.921 Y53.91 E54.73733
G0 F3600 X66.355 Y53.91
G1 F1800 X48.695 Y36.25 E55.56801
G0 F3600 X48.129 Y36.25
G1 F1800 X65.789 Y53.91 E56.39868
G0 F3600 X65.224 Y53.91
G1 F1800 X47.564 Y36.25 E57.22935
G0 F3600 X46.998 Y36.25
G1 F1800 X64.658 Y53.91 E58.06002
G0 F3600 X64.092 Y53.91
G1 F1800 X46.432 Y36.25 E58.8907
G0 F3600 X45.867 Y36.25
G1 F1800 X63.527 Y53.91 E59.72137
G0 F3600 X62.961 Y53.91
G1 F1800 X45.301 Y36.25 E60.55204
G0 F3600 X44.735 Y36.25
G1 F1800 X62.395 Y53.91 E61.38271
G0 F3600 X61.83 Y53.91
G1 F1800 X44.17 Y36.25 E62.21339
G0 F3600 X43.604 Y36.25
G1 F1800 X61.264 Y53.91 E63.04406
G0 F3600 X60.698 Y53.91
G1 F1800 X43.038 Y36.25 E63.87473
G0 F3600 X42.473 Y36.25
G1 F1800 X60.133 Y53.91 E64.7054
G0 F3600 X59.567 Y53.91
G1 F1800 X41.907 Y36.25 E65.53607
G0 F3600 X41.341 Y36.25
G1 F1800 X59.001 Y53.91 E66.36675
G0 F3600 X58.436 Y53.91
G1 F1800 X40.776 Y36.25 E67.19742
G0 F3600 X40.21 Y36.25
G1 F1800 X57.87 Y53.91 E68.02809
G0 F3600 X57.304 Y53.91
G1 F1800 X39.644 Y36.25 E68.85876
G0 F3600 X39.078 Y36.25
G1 F1800 X56.738 Y53.91 E69.68944
G0 F3600 X56.173 Y53.91
G1 F1800 X38.513 Y36.25 E70.52011
G0 F3600 X37.947 Y36.25
G1 F1800 X55.607 Y53.91 E71.35078
G0 F3600 X55.041 Y53.91
G1 F1800 X37.381 Y36.25 E72.18145
G0 F3600 X36.816 Y36.25
G1 F1800 X54.476 Y53.91 E73.01212
G0 F3600 X53.91 Y53.91
G1 F1800 X36.25 Y36.25 E73.8428
G0 F3600 X35.684 Y36.25
G1 F1800 X53.344 Y53.91 E74.67347
G0 F3600 X52.779 Y53.91
G1 F1800 X35.119 Y36.25 E75.50414
G0 F3600 X34.553 Y36.25
G1 F1800 X52.213 Y53.91 E76.33481
G0 F3600 X51.647 Y53.91
G1 F1800 X33.987 Y36.25 E77.16549
G0 F3600 X33.422 Y36.25
G1 F1800 X51.082 Y53.91 E77.99616
G0 F3600 X50.516 Y53.91
G1 F1800 X32.856 Y36.25 E78.82683
G0 F3600 X32.29 Y36.25
G1 F1800 X49.95 Y53.91 E79.6575
G0 F3600 X49.385 Y53.91
G1 F1800 X31.725 Y36.25 E80.48817
G0 F3600 X31.159 Y36.25
G1 F1800 X48.819 Y53.91 E81.31885
G0 F3600 X48.253 Y53.91
G1 F1800 X30.593 Y36.25 E82.14952
G0 F3600 X30.027 Y36.25
G1 F1800 X47.687 Y53.91 E82.98019
G0 F3600 X47.122 Y53.91
G1 F1800 X29.462 Y36.25 E83.81086
G0 F3600 X28.896 Y36.25
G1 F1800 X46.556 Y53.91 E84.64154
G0 F3600 X45.99 Y53.91
G1 F1800 X28.33 Y36.25 E85.47221
G0 F3600 X27.765 Y36.25
G1 F1800 X45.425 Y53.91 E86.30288
G0 F3600 X44.859 Y53.91
G1 F1800 X27.199 Y36.25 E87.13355
G0 F3600 X26.633 Y36.25
G1 F1800 X44.293 Y53.91 E87.96422
G0 F3600 X43.728 Y53.91
G1 F1800 X26.068 Y36.25 E88.7949
G0 F3600 X25.502 Y36.25
G1 F1800 X43.162 Y53.91 E89.62557
G0 F3600 X42.596 Y53.91
G1 F1800 X24.977 Y36.291 E90.45431
G0 F3600 X24.977 Y36.857
G1 F1800 X42.031 Y53.91 E91.25646
G0 F3600 X41.465 Y53.91
G1 F1800 X24.977 Y37.422 E92.032
G0 F3600 X24.977 Y37.988
G1 F1800 X40.899 Y53.91 E92.78092
G0 F3600 X40.334 Y53.91
G1 F1800 X24.977 Y38.554 E93.50325
G0 F3600 X24.977 Y39.119
G1 F1800 X39.768 Y53.91 E94.19897
G0 F3600 X39.202 Y53.91
G1 F1800 X24.977 Y39.685 E94.86807
G0 F3600 X24.977 Y40.251
G1 F1800 X38.637 Y53.91 E95.51057
G0 F3600 X38.071 Y53.91
G1 F1800 X24.977 Y40.817 E96.12645
G0 F3600 X24.977 Y41.382
G1 F1800 X37.505 Y53.91 E96.71573
G0 F3600 X36.939 Y53.91
G1 F1800 X24.977 Y41.948 E97.27838
G0 F3600 X24.977 Y42.514
G1 F1800 X36.374 Y53.91 E97.81444
G0 F3600 X35.808 Y53.91
G1 F1800 X24.977 Y43.079 E98.3239
G0 F3600 X24.977 Y43.645
G1 F1800 X35.242 Y53.91 E98.80673
G0 F3600 X34.677 Y53.91
G1 F1800 X24.977 Y44.211 E99.26297
G0 F3600 X24.977 Y44.776
G1 F1800 X34.111 Y53.91 E99.6926
G0 F3600 X33.545 Y53.91
G1 F1800 X24.977 Y45.342 E100.09561
G0 F3600 X24.977 Y45.908
G1 F1800 X32.98 Y53.91 E100.47203
G0 F3600 X32.414 Y53.91
G1 F1800 X24.977 Y46.473 E100.82184
G0 F3600 X24.977 Y47.039
G1 F1800 X31.848 Y53.91 E101.14503
G0 F3600 X31.283 Y53.91
G1 F1800 X24.977 Y47.605 E101.44162
G0 F3600 X24.977 Y48.17
G1 F1800 X30.717 Y53.91 E101.71162
G0 F3600 X30.151 Y53.91
G1 F1800 X24.977 Y48.736 E101.95498
G0 F3600 X24.977 Y49.302
G1 F1800 X29.586 Y53.91 E102.17175
G0 F3600 X29.02 Y53.91
G1 F1800 X24.977 Y49.867 E102.36192
G0 F3600 X24.977 Y50.433
G1 F1800 X28.454 Y53.91 E102.52547
G0 F3600 X27.888 Y53.91
G1 F1800 X24.977 Y50.999 E102.6624
G0 F3600 X24.977 Y51.565
G1 F1800 X27.323 Y53.91 E102.77272
G0 F3600 X26.757 Y53.91
G1 F1800 X24.977 Y52.13 E102.85645
G0 F3600 X24.977 Y52.696
G1 F1800 X26.191 Y53.91 E102.91355
G0 F3600 X25.626 Y53.91
G1 F1800 X24.977 Y53.262 E102.94405
G0 F3600 X24.977 Y53.827
G1 F1800 X25.06 Y53.91 E102.94796
G1 F2100 E102.14796
G0 F3600 X38.899 Y54.461
G0 X38.899 Y55.746
G0 X38.899 Y58.416
G0 X38.899 Y59.701
G0 X35.575 Y68.101
G0 X35.482 Y69.575
G0 X35.939 Y70.979
G0 X36.887 Y72.122
G0 X37.693 Y72.62
G0 X38.899 Y73.052
G1 F2100 E102.94796
G0 F3600 X38.911 Y72.953
;TYPE:WALL-INNER
G1 F1800 X39.646 Y72.975 E102.97242
G1 X40.371 Y72.858 E102.99684
G1 X41.061 Y72.608 E103.02125
G1 X41.693 Y72.232 E103.04571
G1 X42.237 Y71.752 E103.06984
G1 X42.687 Y71.171 E103.09428
G1 X43.021 Y70.517 E103.11871
G1 X43.226 Y69.812 E103.14313
G1 X43.295 Y69.081 E103.16755
G1 X43.226 Y68.349 E103.192
G1 X43.021 Y67.644 E103.21642
G1 X42.687 Y66.99 E103.24085
G1 X42.237 Y66.41 E103.26526
G1 X41.679 Y65.92 E103.28996
G1 X41.047 Y65.547 E103.31437
G1 X40.354 Y65.3 E103.33884
G1 X39.643 Y65.188 E103.36278
G1 X39.373 Y65.18 E103.37176
G1 X38.653 Y65.248 E103.39582
G1 X37.949 Y65.456 E103.42023
G1 X37.294 Y65.79 E103.44469
G1 X36.722 Y66.236 E103.46881
G1 X36.236 Y66.787 E103.49325
G1 X35.863 Y67.42 E103.51768
G1 X35.613 Y68.11 E103.54209
G1 X35.498 Y68.835 E103.56651
G1 X35.521 Y69.57 E103.59097
G1 X35.682 Y70.286 E103.61538
G1 X35.974 Y70.96 E103.63981
G1 X36.386 Y71.567 E103.66421
G1 X36.912 Y72.092 E103.68892
G1 X37.519 Y72.503 E103.71331
G1 X38.195 Y72.793 E103.73777
G1 X38.911 Y72.953 E103.76217
G0 F3600 X38.899 Y73.052
G0 X55.899 Y73.052
G0 X55.911 Y72.953
G1 F1800 X56.646 Y72.975 E103.78663
