;FLAVOR:Marlin
;TIME:1347
;Filament used: 1.16676m
;Layer height: 0.2
;MINX:112.24
;MINY:28.374
;MINZ:0.2
;MAXX:226.155
;MAXY:79.517
;MAXZ:1
;Generated with Cura_SteamEngine 4.13.1
M82 ;absolute extrusion mode
G21 ; set units to millimeters
G90 ; use absolute positioning
M82 ; absolute extrusion mode
M104 S200 ; set extruder temp
M140 S60 ; set bed temp
M190 S60 ; wait for bed temp
M109 S200 ; wait for extruder temp
G28 W ; home all without mesh bed level
G80 ; mesh bed leveling
G92 E0.0 ; reset extruder distance position
G1 Y-3.0 F1000.0 ; go outside print area
G1 X60.0 E9.0 F1000.0 ; intro line
G1 X100.0 E21.5 F1000.0 ; intro line
G92 E0.0 ; reset extruder distance position
G92 E0
G92 E0
G1 F2100 E-0.8
;LAYER_COUNT:5
;LAYER:0
M107
G0 F3600 X112.421 Y30.548 Z0.2
;TYPE:SKIRT
G1 F2100 E0
G1 F1800 X112.622 Y30.084 E0.01682
G1 X112.893 Y29.657 E0.03364
G1 X113.228 Y29.279 E0.05044
G1 X113.619 Y28.958 E0.06726
G1 X114.055 Y28.702 E0.08408
G1 X114.526 Y28.519 E0.10089
G1 X115.02 Y28.412 E0.1177
G1 X115.68 Y28.375 E0.13968
G1 X154.779 Y28.374 E1.44012
G1 X155.48 Y28.384 E1.46344
G1 X155.983 Y28.431 E1.48024
G1 X156.367 Y28.523 E1.49338
G1 X157.483 Y28.863 E1.53218
G1 X160.171 Y29.645 E1.62529
G1 X162.808 Y30.331 E1.71592
G1 X165.466 Y30.943 E1.80663
G1 X168.195 Y31.493 E1.89923
G1 X170.84 Y31.944 E1.98847
G1 X173.548 Y32.33 E2.07945
G1 X176.315 Y32.644 E2.17207
G1 X178.993 Y32.872 E2.26146
G1 X181.743 Y33.029 E2.35308
G1 X184.505 Y33.107 E2.44498
G1 X185.886 Y33.117 E2.49091
G1 X222.294 Y33.117 E3.70185
G1 X222.992 Y33.127 E3.72506
G1 X223.495 Y33.174 E3.74187
G1 X223.985 Y33.3 E3.75869
G1 X224.449 Y33.502 E3.77553
G1 X224.875 Y33.774 E3.79234
G1 X225.253 Y34.109 E3.80914
G1 X225.573 Y34.5 E3.82594
G1 X225.828 Y34.937 E3.84277
G1 X226.011 Y35.408 E3.85957
G1 X226.118 Y35.902 E3.87639
G1 X226.154 Y36.557 E3.8982
G1 X226.155 Y75.621 E5.19748
G1 X226.146 Y76.348 E5.22166
G1 X226.1 Y76.851 E5.23846
G1 X225.975 Y77.341 E5.25528
G1 X225.774 Y77.805 E5.2721
G1 X225.503 Y78.232 E5.28892
G1 X225.168 Y78.611 E5.30574
G1 X224.778 Y78.932 E5.32254
G1 X224.342 Y79.188 E5.33936
G1 X223.871 Y79.371 E5.35617
G1 X223.377 Y79.479 E5.37298
G1 X222.715 Y79.516 E5.39504
G1 X183.616 Y79.517 E6.69548
G1 X182.915 Y79.507 E6.71879
G1 X182.412 Y79.46 E6.7356
G1 X182.028 Y79.368 E6.74873
G1 X180.912 Y79.028 E6.78753
G1 X178.224 Y78.246 E6.88064
G1 X175.587 Y77.56 E6.97127
G1 X172.929 Y76.948 E7.06199
G1 X170.2 Y76.398 E7.15458
G1 X167.555 Y75.947 E7.24382
G1 X164.847 Y75.561 E7.3348
G1 X162.08 Y75.247 E7.42742
G1 X159.402 Y75.019 E7.51681
G1 X156.652 Y74.862 E7.60843
G1 X153.89 Y74.784 E7.70033
G1 X152.509 Y74.774 E7.74626
G1 X116.101 Y74.774 E8.9572
G1 X115.403 Y74.764 E8.98042
G1 X114.9 Y74.717 E8.99722
G1 X114.41 Y74.591 E9.01405
G1 X113.946 Y74.389 E9.03088
G1 X113.52 Y74.117 E9.04769
G1 X113.142 Y73.782 E9.06449
G1 X112.822 Y73.391 E9.08129
G1 X112.567 Y72.954 E9.09812
G1 X112.384 Y72.483 E9.11493
G1 X112.277 Y71.989 E9.13174
G1 X112.241 Y71.319 E9.15406
G1 X112.24 Y32.23 E10.45416
G1 X112.249 Y31.541 E10.47708
G1 X112.296 Y31.038 E10.49388
G1 X112.421 Y30.548 E10.5107
G1 F2100 E9.7107
;MESH:aperture9mm.stl
G0 F3600 X114.775 Y32.188
G0 X116.054 Y32.188
G0 X116.93 Y37.556
G0 X117.326 Y38.468
G0 X117.951 Y39.238
G0 X118.608 Y39.699
G0 X119.687 Y40.201
G1 F2100 E10.5107
G0 F3600 X119.707 Y40.104
;TYPE:WALL-INNER
G1 F1800 X120.687 Y40.171 E10.54337
G1 X121.648 Y39.971 E10.57602
G1 X122.519 Y39.52 E10.60864
G1 X123.237 Y38.849 E10.64133
G1 X123.747 Y38.01 E10.67398
G1 X124.012 Y37.064 E10.70666
G1 X124.012 Y36.083 E10.73929
G1 X123.747 Y35.138 E10.77193
G1 X123.237 Y34.299 E10.80459
G1 X122.519 Y33.628 E10.83727
G1 X121.648 Y33.177 E10.8699
G1 X120.687 Y32.977 E10.90254
G1 X119.707 Y33.044 E10.93522
G1 X118.782 Y33.372 E10.96786
G1 X117.978 Y33.938 E11.00056
G1 X117.36 Y34.7 E11.03319
G1 X116.968 Y35.6 E11.06584
G1 X116.834 Y36.574 E11.09854
G1 X116.968 Y37.546 E11.13118
G1 X117.36 Y38.448 E11.16389
G1 X117.978 Y39.209 E11.1965
G1 X118.781 Y39.774 E11.22915
G1 X119.707 Y40.104 E11.26185
G0 F3600 X119.687 Y40.201
G0 X130.27 Y46.404
G0 X130.34 Y46.474
G1 F1800 X130.34 Y56.674 E11.6011
G1 X140.54 Y56.674 E11.94035
G1 X140.54 Y46.474 E12.27961
G1 X130.34 Y46.474 E12.61886
G0 F3600 X130.27 Y46.404
G0 X149.687 Y40.201
G0 X149.707 Y40.104
G1 F1800 X150.687 Y40.171 E12.65153
G1 X151.648 Y39.971 E12.68418
G1 X152.519 Y39.52 E12.7168
G1 X153.237 Y38.849 E12.74949
G1 X153.747 Y38.01 E12.78215
G1 X154.012 Y37.064 E12.81482
G1 X154.012 Y36.083 E12.84745
G1 X153.747 Y35.138 E12.88009
G1 X153.237 Y34.299 E12.91275
G1 X152.519 Y33.628 E12.94543
G1 X151.648 Y33.177 E12.97806
G1 X150.687 Y32.977 E13.0107
G1 X149.707 Y33.044 E13.04338
G1 X148.782 Y33.372 E13.07602
G1 X147.978 Y33.938 E13.10872
G1 X147.36 Y34.7 E13.14135
G1 X146.968 Y35.6 E13.174
G1 X146.834 Y36.574 E13.2067
G1 X146.968 Y37.546 E13.23934
G1 X147.36 Y38.448 E13.27205
G1 X147.978 Y39.209 E13.30466
G1 X148.781 Y39.774 E13.33731
G1 X149.707 Y40.104 E13.37001
G0 F3600 X149.687 Y40.201
G0 X146.794 Y66.574
G0 X146.93 Y67.556
G0 X147.326 Y68.468
G0 X147.951 Y69.238
G0 X148.608 Y69.699
G0 X149.687 Y70.201
G0 X149.707 Y70.104
G1 F1800 X150.687 Y70.171 E13.40268
G1 X151.648 Y69.971 E13.43533
G1 X152.519 Y69.52 E13.46795
G1 X153.237 Y68.849 E13.50064
G1 X153.747 Y68.01 E13.53329
G1 X154.012 Y67.064 E13.56597
G1 X154.012 Y66.083 E13.5986
G1 X153.747 Y65.138 E13.63124
G1 X153.237 Y64.299 E13.66389
G1 X152.519 Y63.628 E13.69658
G1 X151.648 Y63.177 E13.7292
G1 X150.687 Y62.977 E13.76185
G1 X149.707 Y63.044 E13.79452
G1 X148.782 Y63.372 E13.82717
G1 X147.978 Y63.938 E13.85987
G1 X147.36 Y64.7 E13.8925
G1 X146.968 Y65.6 E13.92515
G1 X146.834 Y66.574 E13.95785
G1 X146.968 Y67.546 E13.99049
G1 X147.36 Y68.448 E14.0232
G1 X147.978 Y69.209 E14.0558
G1 X148.781 Y69.774 E14.08846
G1 X149.707 Y70.104 E14.12115
G0 F3600 X149.687 Y70.201
G0 X154.77 Y70.904
G0 X154.84 Y70.974
G1 F1800 X116.04 Y70.974 E15.41165
G1 X116.04 Y32.174 E16.70214
G1 X154.84 Y32.174 E17.99263
G1 X154.84 Y70.974 E19.28313
G0 F3600 X154.77 Y70.904
G0 X119.687 Y70.201
G0 X119.707 Y70.104
G1 F1800 X120.687 Y70.171 E19.3158
G1 X121.648 Y69.971 E19.34845
G1 X122.519 Y69.52 E19.38107
G1 X123.237 Y68.849 E19.41376
G1 X123.747 Y68.01 E19.44641
G1 X124.012 Y67.064 E19.47909
G1 X124.012 Y66.083 E19.51172
G1 X123.747 Y65.138 E19.54436
G1 X123.237 Y64.299 E19.57701
G1 X122.519 Y63.628 E19.6097
G1 X121.648 Y63.177 E19.64232
G1 X120.687 Y62.977 E19.67497
G1 X119.707 Y63.044 E19.70764
G1 X118.782 Y63.372 E19.74028
G1 X117.978 Y63.938 E19.77299
G1 X117.36 Y64.7 E19.80562
G1 X116.968 Y65.6 E19.83827
G1 X116.834 Y66.574 E19.87097
G1 X116.968 Y67.546 E19.9036
G1 X117.36 Y68.448 E19.93632
G1 X117.978 Y69.209 E19.96892
G1 X118.781 Y69.774 E20.00158
G1 X119.707 Y70.104 E20.03427
G0 F3600 X119.789 Y69.709
;TYPE:WALL-OUTER
G1 F1800 X120.659 Y69.768 E20.06328
G1 X121.513 Y69.591 E20.09229
G1 X122.286 Y69.19 E20.12125
G1 X122.924 Y68.594 E20.15029
G1 X123.377 Y67.849 E20.17929
G1 X123.612 Y67.009 E20.2083
G1 X123.612 Y66.138 E20.23727
G1 X123.377 Y65.299 E20.26625
G1 X122.924 Y64.554 E20.29525
G1 X122.286 Y63.958 E20.32429
G1 X121.513 Y63.557 E20.35325
G1 X120.659 Y63.38 E20.38226
G1 X119.789 Y63.439 E20.41126
G1 X118.967 Y63.731 E20.44027
G1 X118.254 Y64.233 E20.46928
G1 X117.705 Y64.91 E20.49827
G1 X117.357 Y65.709 E20.52725
G1 X117.238 Y66.574 E20.55629
G1 X117.357 Y67.437 E20.58527
G1 X117.705 Y68.238 E20.61432
G1 X118.254 Y68.914 E20.64328
G1 X118.967 Y69.416 E20.67228
G1 X119.789 Y69.709 E20.70131
G0 F3600 X119.988 Y69.722
G0 X119.954 Y70.22
G0 X121.661 Y70.008
G0 X122.542 Y69.552
G0 X123.268 Y68.874
G0 X123.783 Y68.025
G0 X130.312 Y46.446
G0 X130.74 Y46.874
G1 F1800 X130.74 Y56.274 E21.01395
G1 X140.14 Y56.274 E21.3266
G1 X140.14 Y46.874 E21.63924
G1 X130.74 Y46.874 E21.95189
G0 F3600 X130.74 Y47.074
G0 X130.24 Y47.074
G0 X119.755 Y40.206
G0 X119.789 Y39.709
G1 F1800 X120.659 Y39.768 E21.98089
G1 X121.513 Y39.591 E22.0099
G1 X122.286 Y39.19 E22.03886
G1 X122.924 Y38.594 E22.0679
G1 X123.377 Y37.849 E22.0969
G1 X123.612 Y37.009 E22.12591
G1 X123.612 Y36.138 E22.15488
G1 X123.377 Y35.299 E22.18386
G1 X122.924 Y34.554 E22.21286
G1 X122.286 Y33.958 E22.2419
G1 X121.513 Y33.557 E22.27086
G1 X120.659 Y33.38 E22.29987
G1 X119.789 Y33.439 E22.32887
G1 X118.967 Y33.731 E22.35789
G1 X118.254 Y34.233 E22.38689
G1 X117.705 Y34.91 E22.41588
G1 X117.357 Y35.709 E22.44487
G1 X117.238 Y36.574 E22.47391
G1 X117.357 Y37.437 E22.50288
G1 X117.705 Y38.238 E22.53193
G1 X118.254 Y38.914 E22.5609
G1 X118.967 Y39.416 E22.5899
G1 X119.789 Y39.709 E22.61892
G0 F3600 X119.988 Y39.722
G0 X119.954 Y40.22
G0 X149.755 Y40.206
G0 X149.789 Y39.709
G1 F1800 X150.659 Y39.768 E22.64793
G1 X151.513 Y39.591 E22.67693
G1 X152.286 Y39.19 E22.7059
G1 X152.924 Y38.594 E22.73494
G1 X153.377 Y37.849 E22.76394
G1 X153.612 Y37.009 E22.79295
G1 X153.612 Y36.138 E22.82192
G1 X153.377 Y35.299 E22.8509
G1 X152.924 Y34.554 E22.8799
G1 X152.286 Y33.958 E22.90893
G1 X151.513 Y33.557 E22.9379
G1 X150.659 Y33.38 E22.96691
G1 X149.789 Y33.439 E22.99591
G1 X148.967 Y33.731 E23.02492
G1 X148.254 Y34.233 E23.05392
G1 X147.705 Y34.91 E23.08291
G1 X147.357 Y35.709 E23.1119
G1 X147.238 Y36.574 E23.14094
G1 X147.357 Y37.437 E23.16992
G1 X147.705 Y38.238 E23.19896
G1 X148.254 Y38.914 E23.22793
G1 X148.967 Y39.416 E23.25693
G1 X149.789 Y39.709 E23.28596
G0 F3600 X149.988 Y39.722
G0 X149.954 Y40.22
G0 X146.794 Y66.574
G0 X146.93 Y67.556
G0 X147.326 Y68.468
G0 X147.951 Y69.238
G0 X148.608 Y69.699
G0 X149.755 Y70.206
G0 X149.789 Y69.709
G1 F1800 X150.659 Y69.768 E23.31496
G1 X151.513 Y69.591 E23.34397
G1 X152.286 Y69.19 E23.37293
G1 X152.924 Y68.594 E23.40197
G1 X153.377 Y67.849 E23.43097
G1 X153.612 Y67.009 E23.45998
G1 X153.612 Y66.138 E23.48895
G1 X153.377 Y65.299 E23.51793
G1 X152.924 Y64.554 E23.54693
G1 X152.286 Y63.958 E23.57597
G1 X151.513 Y63.557 E23.60493
G1 X150.659 Y63.38 E23.63394
G1 X149.789 Y63.439 E23.66294
G1 X148.967 Y63.731 E23.69196
G1 X148.254 Y64.233 E23.72096
G1 X147.705 Y64.91 E23.74995
G1 X147.357 Y65.709 E23.77893
G1 X147.238 Y66.574 E23.80798
G1 X147.357 Y67.437 E23.83695
G1 X147.705 Y68.238 E23.866
G1 X148.254 Y68.914 E23.89496
G1 X148.967 Y69.416 E23.92396
G1 X149.789 Y69.709 E23.95299
G0 F3600 X149.988 Y69.722
G0 X149.954 Y70.22
G0 X154.77 Y70.904
G0 X155.24 Y71.374
G1 F1800 X115.64 Y71.374 E25.27009
G1 X115.64 Y31.774 E26.58719
G1 X155.24 Y31.774 E27.90429
G1 X155.24 Y71.374 E29.22139
G0 F3600 X155.04 Y71.374
G0 X154.45 Y70.584
;TYPE:SKIN
G1 F1800 X116.43 Y70.584 E30.48594
G1 X116.43 Y32.564 E31.7505
G1 X154.45 Y32.564 E33.01505
G1 X154.45 Y70.584 E34.2796
G0 F3600 X153.543 Y69.097
G1 F1800 X154.108 Y68.166 E34.31582
G1 X154.402 Y67.117 E34.35205
G1 X154.402 Y66.029 E34.38824
G1 X154.108 Y64.982 E34.42441
G1 X153.543 Y64.051 E34.46063
G1 X152.746 Y63.306 E34.49692
G1 X151.78 Y62.806 E34.53309
G1 X150.714 Y62.585 E34.5693
G1 X149.627 Y62.658 E34.60554
G1 X148.601 Y63.023 E34.64176
G1 X147.709 Y63.65 E34.67802
G1 X147.024 Y64.495 E34.7142
G1 X146.589 Y65.493 E34.75041
G1 X146.44 Y66.574 E34.78671
G1 X146.589 Y67.653 E34.82293
G1 X147.023 Y68.653 E34.85919
G1 X147.709 Y69.497 E34.89537
G1 X148.6 Y70.123 E34.93158
G1 X149.627 Y70.49 E34.96786
G1 X150.714 Y70.563 E35.00409
G1 X151.78 Y70.342 E35.0403
G1 X152.746 Y69.842 E35.07648
G1 X153.543 Y69.097 E35.11277
G0 F3600 X154.051 Y67.069
G0 X154.051 Y66.078
G0 X153.783 Y65.123
G0 X153.268 Y64.274
G0 X152.615 Y63.664
G0 X140.93 Y57.064
G1 F1800 X140.93 Y46.084 E35.47796
G1 X129.95 Y46.084 E35.84316
G1 X129.95 Y57.064 E36.20836
G1 X140.93 Y57.064 E36.57355
G0 F3600 X150.714 Y40.563
G1 F1800 X151.78 Y40.342 E36.60976
G1 X152.746 Y39.842 E36.64594
G1 X153.543 Y39.097 E36.68222
G1 X154.108 Y38.166 E36.71845
G1 X154.402 Y37.117 E36.75468
G1 X154.402 Y36.029 E36.79087
G1 X154.108 Y34.982 E36.82704
G1 X153.543 Y34.051 E36.86326
G1 X152.746 Y33.306 E36.89954
G1 X151.78 Y32.806 E36.93572
G1 X150.714 Y32.585 E36.97193
G1 X149.627 Y32.658 E37.00817
G1 X148.601 Y33.023 E37.04439
G1 X147.709 Y33.65 E37.08065
G1 X147.024 Y34.495 E37.11683
G1 X146.589 Y35.493 E37.15304
G1 X146.44 Y36.574 E37.18933
G1 X146.589 Y37.653 E37.22556
G1 X147.023 Y38.653 E37.26182
G1 X147.709 Y39.497 E37.298
G1 X148.6 Y40.123 E37.33421
G1 X149.627 Y40.49 E37.37049
G1 X150.714 Y40.563 E37.40672
G0 F3600 X123.543 Y39.097
G1 F1800 X124.108 Y38.166 E37.44294
G1 X124.402 Y37.117 E37.47918
G1 X124.402 Y36.029 E37.51536
G1 X124.108 Y34.982 E37.55153
G1 X123.543 Y34.051 E37.58776
G1 X122.746 Y33.306 E37.62404
G1 X121.78 Y32.806 E37.66022
G1 X120.714 Y32.585 E37.69643
G1 X119.627 Y32.658 E37.73266
G1 X118.601 Y33.023 E37.76888
G1 X117.709 Y33.65 E37.80515
G1 X117.024 Y34.495 E37.84133
G1 X116.589 Y35.493 E37.87754
G1 X116.44 Y36.574 E37.91383
G1 X116.589 Y37.653 E37.95006
G1 X117.023 Y38.653 E37.98632
G1 X117.709 Y39.497 E38.02249
G1 X118.6 Y40.123 E38.05871
G1 X119.627 Y40.49 E38.09498
G1 X120.714 Y40.563 E38.13122
G1 X121.78 Y40.342 E38.16743
G1 X122.746 Y39.842 E38.20361
G1 X123.543 Y39.097 E38.23989
G0 F3600 X124.402 Y67.117
G1 F1800 X124.402 Y66.029 E38.27608
G1 X124.108 Y64.982 E38.31225
G1 X123.543 Y64.051 E38.34847
G1 X122.746 Y63.306 E38.38476
G1 X121.78 Y62.806 E38.42093
G1 X120.714 Y62.585 E38.45714
G1 X119.627 Y62.658 E38.49338
G1 X118.601 Y63.023 E38.5296
G1 X117.709 Y63.65 E38.56586
G1 X117.024 Y64.495 E38.60204
G1 X116.589 Y65.493 E38.63825
G1 X116.44 Y66.574 E38.67455
G1 X116.589 Y67.653 E38.71077
G1 X117.023 Y68.653 E38.74703
G1 X117.709 Y69.497 E38.78321
G1 X118.6 Y70.123 E38.81942
G1 X119.627 Y70.49 E38.8557
G1 X120.714 Y70.563 E38.89193
G1 X121.78 Y70.342 E38.92814
G1 X122.746 Y69.842 E38.96432
G1 X123.543 Y69.097 E39.00061
G1 X124.108 Y68.166 E39.03683
G1 X124.402 Y67.117 E39.07306
G0 F3600 X123.268 Y68.874
G0 X122.542 Y69.552
G0 X121.661 Y70.008
G0 X120.875 Y70.17
G0 X116.789 Y70.403
G1 F1800 X116.608 Y70.222 E39.08158
G0 F3600 X116.608 Y69.657
G1 F1800 X117.355 Y70.403 E39.11669
G0 F3600 X117.921 Y70.403
G1 F1800 X116.608 Y69.091 E39.17843
G0 F3600 X117.025 Y68.942
G1 F1800 X116.608 Y68.525 E39.19804
G0 F3600 X118.018 Y69.935
G1 F1800 X118.487 Y70.403 E39.22008
G0 F3600 X122.311 Y70.268
G1 F1800 X122.446 Y70.403 E39.22643
G0 F3600 X122.684 Y70.075
G1 F1800 X123.012 Y70.403 E39.24185
G0 F3600 X123.012 Y69.838
G1 F1800 X123.578 Y70.403 E39.26845
G0 F3600 X124.143 Y70.403
G1 F1800 X123.305 Y69.565 E39.30787
G0 F3600 X123.597 Y69.291
G1 F1800 X124.709 Y70.403 E39.36018
G0 F3600 X125.275 Y70.403
G1 F1800 X123.834 Y68.962 E39.42796
G0 F3600 X124.047 Y68.61
G1 F1800 X125.84 Y70.403 E39.51229
G0 F3600 X126.406 Y70.403
G1 F1800 X124.261 Y68.258 E39.61319
G0 F3600 X124.39 Y67.822
G1 F1800 X126.972 Y70.403 E39.73461
G0 F3600 X127.538 Y70.403
G1 F1800 X124.514 Y67.38 E39.87683
G0 F3600 X124.58 Y66.88
G1 F1800 X128.103 Y70.403 E40.04254
G0 F3600 X128.669 Y70.403
G1 F1800 X124.58 Y66.315 E40.23485
G0 F3600 X124.483 Y65.652
G1 F1800 X129.235 Y70.403 E40.45835
G0 F3600 X129.8 Y70.403
G1 F1800 X124.223 Y64.826 E40.72067
G1 X124.153 Y64.756
G0 F3600 X122.238 Y62.841
G1 F1800 X116.608 Y57.212 E40.98547
G0 F3600 X116.608 Y57.777
G1 F1800 X121.369 Y62.537 E41.20939
G0 F3600 X120.672 Y62.406
G1 F1800 X116.608 Y58.343 E41.40052
G0 F3600 X116.608 Y58.909
G1 F1800 X120.142 Y62.442 E41.56673
G0 F3600 X119.612 Y62.477
G1 F1800 X116.608 Y59.474 E41.708
G0 F3600 X116.608 Y60.04
G1 F1800 X119.19 Y62.622 E41.82945
G0 F3600 X118.773 Y62.77
G1 F1800 X116.608 Y60.606 E41.93126
G0 F3600 X116.608 Y61.171
G1 F1800 X118.388 Y62.95 E42.01496
G0 F3600 X118.055 Y63.184
G1 F1800 X116.608 Y61.737 E42.08303
G0 F3600 X116.608 Y62.303
G1 F1800 X117.723 Y63.417 E42.13545
G0 F3600 X117.438 Y63.698
G1 F1800 X116.608 Y62.868 E42.17449
G0 F3600 X116.608 Y63.434
G1 F1800 X117.185 Y64.01 E42.20161
G0 F3600 X116.932 Y64.323
G1 F1800 X116.608 Y64 E42.21682
G0 F3600 X116.608 Y64.565
G1 F1800 X116.739 Y64.696 E42.22299
G0 F3600 X116.608 Y56.646
G1 F1800 X130.366 Y70.403 E42.8701
G0 F3600 X130.932 Y70.403
G1 F1800 X116.608 Y56.08 E43.54383
G0 F3600 X116.608 Y55.514
G1 F1800 X131.497 Y70.403 E44.24416
G0 F3600 X132.063 Y70.403
