;FLAVOR:Marlin
;TIME:1503
;Filament used: 1.4345m
;Layer height: 0.2
;MINX:99.465
;MINY:47.223
;MINZ:0.2
;MAXX:155.065
;MAXY:102.823
;MAXZ:3
;Generated with Cura_SteamEngine 4.13.1
M82 ;absolute extrusion mode
G21 ; set units to millimeters
G90 ; use absolute positioning
M82 ; absolute extrusion mode
M104 S200 ; set extruder temp
M140 S60 ; set bed temp
M190 S60 ; wait for bed temp
M109 S200 ; wait for extruder temp
G28 W ; home all without mesh bed level
G80 ; mesh bed leveling
G92 E0.0 ; reset extruder distance position
G1 Y-3.0 F1000.0 ; go outside print area
G1 X60.0 E9.0 F1000.0 ; intro line
G1 X100.0 E21.5 F1000.0 ; intro line
G92 E0.0 ; reset extruder distance position
G92 E0
G92 E0
G1 F2100 E-0.8
;LAYER_COUNT:15
;LAYER:0
M107
G0 F3600 X100.444 Y51.24 Z0.2
;TYPE:SKIRT
G1 F2100 E0
G1 F1800 X100.862 Y50.569 E0.02629
G1 X101.345 Y49.945 E0.05254
G1 X101.888 Y49.372 E0.0788
G1 X102.487 Y48.857 E0.10507
G1 X103.135 Y48.406 E0.13133
G1 X103.826 Y48.022 E0.15762
G1 X104.551 Y47.71 E0.18387
G1 X105.304 Y47.473 E0.21013
G1 X106.078 Y47.314 E0.23641
G1 X106.863 Y47.233 E0.26266
G1 X107.265 Y47.223 E0.27603
G1 X147.265 Y47.223 E1.60644
G1 X148.054 Y47.263 E1.63271
G1 X148.834 Y47.382 E1.65896
G1 X149.599 Y47.58 E1.68524
G1 X150.339 Y47.854 E1.71148
G1 X151.048 Y48.202 E1.73775
G1 X151.719 Y48.62 E1.76405
G1 X152.343 Y49.103 E1.79029
G1 X152.916 Y49.646 E1.81655
G1 X153.431 Y50.245 E1.84282
G1 X153.882 Y50.893 E1.86908
G1 X154.266 Y51.584 E1.89537
G1 X154.578 Y52.309 E1.92163
G1 X154.815 Y53.062 E1.94788
G1 X154.974 Y53.836 E1.97416
G1 X155.055 Y54.621 E2.00041
G1 X155.065 Y55.023 E2.01379
G1 X155.065 Y95.023 E3.34419
G1 X155.025 Y95.812 E3.37047
G1 X154.906 Y96.592 E3.39671
G1 X154.708 Y97.357 E3.42299
G1 X154.434 Y98.097 E3.44924
G1 X154.086 Y98.806 E3.47551
G1 X153.668 Y99.477 E3.5018
G1 X153.185 Y100.101 E3.52805
G1 X152.642 Y100.674 E3.5543
G1 X152.043 Y101.189 E3.58058
G1 X151.395 Y101.64 E3.60683
G1 X150.704 Y102.024 E3.63313
G1 X149.979 Y102.336 E3.65938
G1 X149.226 Y102.573 E3.68564
G1 X148.452 Y102.732 E3.71192
G1 X147.667 Y102.813 E3.73816
G1 X147.265 Y102.823 E3.75154
G1 X107.265 Y102.823 E5.08194
G1 X106.476 Y102.783 E5.10822
G1 X105.696 Y102.664 E5.13446
G1 X104.931 Y102.466 E5.16075
G1 X104.191 Y102.192 E5.18699
G1 X103.482 Y101.844 E5.21326
G1 X102.811 Y101.426 E5.23955
G1 X102.187 Y100.943 E5.2658
G1 X101.614 Y100.4 E5.29206
G1 X101.099 Y99.801 E5.31833
G1 X100.648 Y99.153 E5.34459
G1 X100.264 Y98.462 E5.37088
G1 X99.952 Y97.737 E5.39713
G1 X99.715 Y96.984 E5.42339
G1 X99.556 Y96.21 E5.44967
G1 X99.475 Y95.425 E5.47592
G1 X99.465 Y95.023 E5.48929
G1 X99.465 Y55.023 E6.8197
G1 X99.505 Y54.234 E6.84597
G1 X99.624 Y53.454 E6.87222
G1 X99.822 Y52.689 E6.8985
G1 X100.096 Y51.949 E6.92474
G1 X100.444 Y51.24 E6.95101
G0 F3600 X100.843 Y51.347
G1 F1800 X101.259 Y50.7 E6.9766
G1 X101.74 Y50.1 E7.00217
G1 X102.281 Y49.553 E7.02776
G1 X102.876 Y49.065 E7.05336
G1 X103.518 Y48.642 E7.07893
G1 X104.201 Y48.287 E7.10453
G1 X104.916 Y48.006 E7.13008
G1 X105.658 Y47.8 E7.15569
G1 X106.416 Y47.672 E7.18126
G1 X107.265 Y47.623 E7.20955
G1 X147.265 Y47.623 E8.53995
G1 X148.033 Y47.663 E8.56553
G1 X148.793 Y47.782 E8.59112
G1 X149.536 Y47.98 E8.61669
G1 X150.255 Y48.254 E8.64228
G1 X150.941 Y48.601 E8.66785
G1 X151.588 Y49.017 E8.69344
G1 X152.188 Y49.498 E8.71901
G1 X152.735 Y50.039 E8.7446
G1 X153.223 Y50.634 E8.7702
G1 X153.646 Y51.276 E8.79577
G1 X154.001 Y51.959 E8.82137
G1 X154.282 Y52.674 E8.84692
G1 X154.488 Y53.416 E8.87253
G1 X154.616 Y54.174 E8.8981
G1 X154.665 Y55.023 E8.92639
G1 X154.665 Y95.023 E10.25679
G1 X154.625 Y95.791 E10.28237
G1 X154.506 Y96.551 E10.30796
G1 X154.308 Y97.294 E10.33353
G1 X154.034 Y98.013 E10.35912
G1 X153.687 Y98.699 E10.38469
G1 X153.271 Y99.346 E10.41028
G1 X152.79 Y99.946 E10.43585
G1 X152.249 Y100.493 E10.46144
G1 X151.654 Y100.981 E10.48704
G1 X151.012 Y101.404 E10.51261
G1 X150.329 Y101.759 E10.53821
G1 X149.614 Y102.04 E10.56376
G1 X148.872 Y102.246 E10.58937
G1 X148.114 Y102.374 E10.61494
G1 X147.265 Y102.423 E10.64323
G1 X107.265 Y102.423 E11.97363
G1 X106.497 Y102.383 E11.99921
G1 X105.737 Y102.264 E12.0248
G1 X104.994 Y102.066 E12.05037
G1 X104.275 Y101.792 E12.07596
G1 X103.589 Y101.445 E12.10153
G1 X102.942 Y101.029 E12.12711
G1 X102.342 Y100.548 E12.15269
G1 X101.795 Y100.007 E12.17828
G1 X101.307 Y99.412 E12.20387
G1 X100.884 Y98.77 E12.22945
G1 X100.529 Y98.087 E12.25505
G1 X100.248 Y97.372 E12.2806
G1 X100.042 Y96.63 E12.30621
G1 X99.914 Y95.872 E12.33178
G1 X99.865 Y95.023 E12.36006
G1 X99.865 Y55.023 E13.69047
G1 X99.905 Y54.255 E13.71605
G1 X100.024 Y53.495 E13.74163
G1 X100.222 Y52.752 E13.76721
G1 X100.496 Y52.033 E13.7928
G1 X100.843 Y51.347 E13.81837
G0 F3600 X101.242 Y51.457
G1 F1800 X101.657 Y50.834 E13.84327
G1 X102.136 Y50.26 E13.86813
G1 X102.673 Y49.739 E13.89302
G1 X103.263 Y49.28 E13.91788
G1 X103.899 Y48.885 E13.94278
G1 X104.573 Y48.561 E13.96766
G1 X105.278 Y48.311 E13.99253
G1 X106.006 Y48.137 E14.01743
G1 X106.748 Y48.042 E14.04231
G1 X107.265 Y48.023 E14.05952
G1 X147.265 Y48.023 E15.38992
G1 X148.012 Y48.063 E15.4148
G1 X148.75 Y48.182 E15.43967
G1 X149.472 Y48.38 E15.46457
G1 X150.168 Y48.653 E15.48943
G1 X150.831 Y49 E15.51432
G1 X151.454 Y49.415 E15.53922
G1 X152.028 Y49.894 E15.56409
G1 X152.549 Y50.431 E15.58897
G1 X153.008 Y51.021 E15.61383
G1 X153.403 Y51.657 E15.63873
G1 X153.727 Y52.331 E15.66361
G1 X153.977 Y53.036 E15.68849
G1 X154.151 Y53.764 E15.71338
G1 X154.246 Y54.506 E15.73826
G1 X154.265 Y55.023 E15.75547
G1 X154.265 Y95.023 E17.08587
G1 X154.225 Y95.77 E17.11076
G1 X154.106 Y96.508 E17.13562
G1 X153.908 Y97.23 E17.16052
G1 X153.635 Y97.926 E17.18539
G1 X153.288 Y98.589 E17.21027
G1 X152.873 Y99.212 E17.23517
G1 X152.394 Y99.786 E17.26004
G1 X151.857 Y100.307 E17.28492
G1 X151.267 Y100.766 E17.30979
G1 X150.631 Y101.161 E17.33469
G1 X149.957 Y101.485 E17.35956
G1 X149.252 Y101.735 E17.38444
G1 X148.524 Y101.909 E17.40933
G1 X147.782 Y102.004 E17.43421
G1 X147.265 Y102.023 E17.45142
G1 X107.265 Y102.023 E18.78183
G1 X106.518 Y101.983 E18.80671
G1 X105.78 Y101.864 E18.83157
G1 X105.058 Y101.666 E18.85647
G1 X104.362 Y101.393 E18.88134
G1 X103.699 Y101.046 E18.90623
G1 X103.076 Y100.631 E18.93112
G1 X102.502 Y100.152 E18.95599
G1 X101.981 Y99.615 E18.98087
G1 X101.522 Y99.025 E19.00574
G1 X101.127 Y98.389 E19.03064
G1 X100.803 Y97.715 E19.05551
G1 X100.553 Y97.01 E19.08039
G1 X100.379 Y96.282 E19.10529
G1 X100.284 Y95.54 E19.13017
G1 X100.265 Y95.023 E19.14737
G1 X100.265 Y55.023 E20.47778
G1 X100.305 Y54.276 E20.50266
G1 X100.424 Y53.538 E20.52752
G1 X100.622 Y52.816 E20.55242
G1 X100.895 Y52.12 E20.57729
G1 X101.242 Y51.457 E20.60218
G0 F3600 X101.64 Y51.57
G1 F1800 X102.054 Y50.973 E20.62634
G1 X102.53 Y50.425 E20.65048
G1 X103.064 Y49.932 E20.67466
G1 X103.649 Y49.502 E20.69881
G1 X104.278 Y49.138 E20.72298
G1 X104.943 Y48.845 E20.74715
G1 X105.636 Y48.627 E20.77131
G1 X106.348 Y48.487 E20.79544
G1 X107.265 Y48.423 E20.82602
G1 X147.265 Y48.423 E22.15642
G1 X147.99 Y48.463 E22.18057
G1 X148.707 Y48.582 E22.20475
G1 X149.406 Y48.78 E22.22891
G1 X150.079 Y49.053 E22.25307
G1 X150.718 Y49.398 E22.27722
G1 X151.315 Y49.812 E22.30138
G1 X151.863 Y50.288 E22.32552
G1 X152.356 Y50.822 E22.3497
G1 X152.786 Y51.407 E22.37385
G1 X153.15 Y52.036 E22.39802
G1 X153.443 Y52.701 E22.42219
G1 X153.661 Y53.394 E22.44635
G1 X153.801 Y54.106 E22.47048
G1 X153.865 Y55.023 E22.50106
G1 X153.865 Y95.023 E23.83146
G1 X153.825 Y95.748 E23.85561
G1 X153.706 Y96.465 E23.87979
G1 X153.508 Y97.164 E23.90395
G1 X153.235 Y97.837 E23.92811
G1 X152.89 Y98.476 E23.95226
G1 X152.476 Y99.073 E23.97642
G1 X152 Y99.621 E24.00057
G1 X151.466 Y100.114 E24.02474
G1 X150.881 Y100.544 E24.04889
G1 X150.252 Y100.908 E24.07306
G1 X149.587 Y101.201 E24.09723
G1 X148.894 Y101.419 E24.12139
G1 X148.182 Y101.559 E24.14552
G1 X147.265 Y101.623 E24.1761
G1 X107.265 Y101.623 E25.5065
G1 X106.54 Y101.583 E25.53065
G1 X105.823 Y101.464 E25.55483
G1 X105.124 Y101.266 E25.57899
G1 X104.451 Y100.993 E25.60315
G1 X103.812 Y100.648 E25.6273
G1 X103.215 Y100.234 E25.65146
G1 X102.667 Y99.758 E25.67561
G1 X102.174 Y99.224 E25.69978
G1 X101.744 Y98.639 E25.72393
G1 X101.38 Y98.01 E25.7481
G1 X101.087 Y97.345 E25.77227
G1 X100.869 Y96.652 E25.79643
G1 X100.729 Y95.94 E25.82056
G1 X100.665 Y95.023 E25.85114
G1 X100.665 Y55.023 E27.18154
G1 X100.705 Y54.298 E27.20569
G1 X100.824 Y53.581 E27.22987
G1 X101.022 Y52.882 E27.25403
G1 X101.295 Y52.209 E27.27819
G1 X101.64 Y51.57 E27.30234
G0 F3600 X101.694 Y52.302
G1 F1800 X102.039 Y51.688 E27.32576
G1 X102.45 Y51.117 E27.34916
G1 X102.924 Y50.596 E27.37259
G1 X103.454 Y50.132 E27.39602
G1 X104.033 Y49.732 E27.41943
G1 X104.654 Y49.4 E27.44285
G1 X105.308 Y49.14 E27.46626
G1 X105.988 Y48.956 E27.48969
G1 X106.684 Y48.85 E27.5131
G1 X107.265 Y48.823 E27.53245
G1 X147.265 Y48.823 E28.86285
G1 X147.968 Y48.863 E28.88627
G1 X148.662 Y48.982 E28.90969
G1 X149.337 Y49.18 E28.93309
G1 X149.986 Y49.452 E28.95649
G1 X150.6 Y49.797 E28.97992
G1 X151.171 Y50.208 E29.00332
G1 X151.692 Y50.682 E29.02674
G1 X152.156 Y51.212 E29.05017
G1 X152.556 Y51.791 E29.07358
G1 X152.888 Y52.412 E29.097
G1 X153.148 Y53.066 E29.12041
G1 X153.332 Y53.746 E29.14384
G1 X153.438 Y54.442 E29.16725
G1 X153.465 Y55.023 E29.1866
G1 X153.465 Y95.023 E30.517
G1 X153.425 Y95.726 E30.54042
G1 X153.306 Y96.42 E30.56384
G1 X153.108 Y97.095 E30.58724
G1 X152.836 Y97.744 E30.61065
G1 X152.491 Y98.358 E30.63407
G1 X152.08 Y98.929 E30.65747
G1 X151.606 Y99.45 E30.6809
G1 X151.076 Y99.914 E30.70433
G1 X150.497 Y100.314 E30.72773
G1 X149.876 Y100.646 E30.75115
G1 X149.222 Y100.906 E30.77456
G1 X148.542 Y101.09 E30.79799
G1 X147.846 Y101.196 E30.82141
G1 X147.265 Y101.223 E30.84075
G1 X107.265 Y101.223 E32.17116
G1 X106.562 Y101.183 E32.19458
G1 X105.868 Y101.064 E32.218
G1 X105.193 Y100.866 E32.24139
G1 X104.544 Y100.594 E32.2648
G1 X103.93 Y100.249 E32.28822
G1 X103.359 Y99.838 E32.31162
G1 X102.838 Y99.364 E32.33505
G1 X102.374 Y98.834 E32.35848
G1 X101.974 Y98.255 E32.38188
G1 X101.642 Y97.634 E32.40531
G1 X101.382 Y96.98 E32.42871
G1 X101.198 Y96.3 E32.45214
G1 X101.092 Y95.604 E32.47556
G1 X101.065 Y95.023 E32.4949
G1 X101.065 Y55.023 E33.82531
G1 X101.105 Y54.32 E33.84873
G1 X101.224 Y53.626 E33.87215
G1 X101.422 Y52.951 E33.89555
G1 X101.694 Y52.302 E33.91895
G0 F3600 X102.093 Y52.397
G1 F1800 X102.437 Y51.809 E33.94161
G1 X102.847 Y51.265 E33.96427
G1 X103.318 Y50.774 E33.9869
G1 X103.843 Y50.34 E34.00955
G1 X104.415 Y49.971 E34.03219
G1 X105.027 Y49.672 E34.05485
G1 X105.669 Y49.447 E34.07747
G1 X106.334 Y49.298 E34.10014
G1 X107.265 Y49.223 E34.1312
G1 X147.265 Y49.223 E35.46161
G1 X147.945 Y49.263 E35.48427
G1 X148.615 Y49.382 E35.5069
G1 X149.267 Y49.579 E35.52955
G1 X149.891 Y49.851 E35.55219
G1 X150.479 Y50.195 E35.57485
G1 X151.023 Y50.605 E35.59751
G1 X151.514 Y51.076 E35.62014
G1 X151.948 Y51.601 E35.64279
G1 X152.317 Y52.173 E35.66543
G1 X152.616 Y52.785 E35.68809
G1 X152.841 Y53.427 E35.71071
G1 X152.99 Y54.092 E35.73338
G1 X153.065 Y55.023 E35.76445
G1 X153.065 Y95.023 E37.09485
G1 X153.025 Y95.703 E37.11751
G1 X152.906 Y96.373 E37.14014
G1 X152.709 Y97.025 E37.16279
G1 X152.437 Y97.649 E37.18543
G1 X152.093 Y98.237 E37.20809
G1 X151.683 Y98.781 E37.23075
G1 X151.212 Y99.272 E37.25338
G1 X150.687 Y99.706 E37.27603
G1 X150.115 Y100.075 E37.29867
G1 X149.503 Y100.374 E37.32133
G1 X148.861 Y100.599 E37.34395
G1 X148.196 Y100.748 E37.36662
G1 X147.265 Y100.823 E37.39769
G1 X107.265 Y100.823 E38.72809
G1 X106.585 Y100.783 E38.75075
G1 X105.915 Y100.664 E38.77338
G1 X105.263 Y100.467 E38.79604
G1 X104.639 Y100.195 E38.81868
G1 X104.051 Y99.851 E38.84133
G1 X103.507 Y99.441 E38.86399
G1 X103.016 Y98.97 E38.88662
G1 X102.582 Y98.445 E38.90928
G1 X102.213 Y97.873 E38.93192
G1 X101.914 Y97.261 E38.95457
G1 X101.689 Y96.619 E38.9772
G1 X101.54 Y95.954 E38.99986
G1 X101.465 Y95.023 E39.03093
G1 X101.465 Y55.023 E40.36133
G1 X101.505 Y54.343 E40.38399
G1 X101.624 Y53.673 E40.40662
G1 X101.821 Y53.021 E40.42928
G1 X102.093 Y52.397 E40.45192
G0 F3600 X102.493 Y52.496
G1 F1800 X102.835 Y51.935 E40.47377
G1 X103.243 Y51.42 E40.49562
G1 X103.71 Y50.958 E40.51747
G1 X104.23 Y50.557 E40.53931
G1 X104.794 Y50.221 E40.56115
G1 X105.396 Y49.957 E40.58301
G1 X106.025 Y49.767 E40.60487
G1 X106.672 Y49.656 E40.6267
G1 X107.265 Y49.623 E40.64645
G1 X147.265 Y49.623 E41.97686
G1 X147.921 Y49.663 E41.99872
G1 X148.567 Y49.782 E42.02056
G1 X149.194 Y49.979 E42.04242
G1 X149.792 Y50.251 E42.06427
G1 X150.353 Y50.593 E42.08613
G1 X150.868 Y51.001 E42.10798
G1 X151.33 Y51.468 E42.12983
G1 X151.731 Y51.988 E42.15167
G1 X152.067 Y52.552 E42.1735
G1 X152.331 Y53.154 E42.19537
G1 X152.521 Y53.783 E42.21722
G1 X152.632 Y54.43 E42.23906
G1 X152.665 Y55.023 E42.25881
G1 X152.665 Y95.023 E43.58922
G1 X152.625 Y95.679 E43.61107
G1 X152.506 Y96.325 E43.63292
G1 X152.309 Y96.952 E43.65478
G1 X152.037 Y97.55 E43.67663
G1 X151.695 Y98.111 E43.69848
G1 X151.287 Y98.626 E43.72034
G1 X150.82 Y99.088 E43.74219
G1 X150.3 Y99.489 E43.76403
G1 X149.736 Y99.825 E43.78586
G1 X149.134 Y100.089 E43.80773
G1 X148.505 Y100.279 E43.82958
G1 X147.858 Y100.39 E43.85141
G1 X147.265 Y100.423 E43.87117
G1 X107.265 Y100.423 E45.20157
G1 X106.609 Y100.383 E45.22343
G1 X105.963 Y100.264 E45.24528
G1 X105.336 Y100.067 E45.26714
G1 X104.738 Y99.795 E45.28899
G1 X104.177 Y99.453 E45.31084
G1 X103.662 Y99.045 E45.33269
G1 X103.2 Y98.578 E45.35454
G1 X102.799 Y98.058 E45.37638
G1 X102.463 Y97.494 E45.39822
G1 X102.199 Y96.892 E45.42008
G1 X102.009 Y96.263 E45.44194
G1 X101.898 Y95.616 E45.46377
G1 X101.865 Y95.023 E45.48352
G1 X101.865 Y55.023 E46.81393
G1 X101.905 Y54.367 E46.83579
G1 X102.024 Y53.721 E46.85764
G1 X102.221 Y53.094 E46.8795
G1 X102.493 Y52.496 E46.90135
G0 F3600 X102.892 Y52.599
G1 F1800 X103.232 Y52.067 E46.92235
G1 X103.638 Y51.582 E46.94338
G1 X104.101 Y51.152 E46.9644
G1 X104.615 Y50.783 E46.98544
G1 X105.171 Y50.483 E47.00646
G1 X105.76 Y50.255 E47.02746
G1 X106.374 Y50.103 E47.0485
G1 X107.265 Y50.023 E47.07826
G1 X147.265 Y50.023 E48.40866
G1 X147.896 Y50.063 E48.42969
G1 X148.517 Y50.182 E48.45072
G1 X149.117 Y50.379 E48.47172
G1 X149.689 Y50.65 E48.49278
G1 X150.221 Y50.99 E48.51378
G1 X150.706 Y51.396 E48.53481
G1 X151.136 Y51.859 E48.55583
G1 X151.505 Y52.373 E48.57687
G1 X151.805 Y52.929 E48.59789
G1 X152.033 Y53.518 E48.61889
G1 X152.185 Y54.132 E48.63993
G1 X152.265 Y55.023 E48.66969
G1 X152.265 Y95.023 E50.00009
G1 X152.225 Y95.654 E50.02112
G1 X152.106 Y96.275 E50.04215
G1 X151.909 Y96.875 E50.06316
G1 X151.638 Y97.447 E50.08421
G1 X151.298 Y97.979 E50.10521
G1 X150.892 Y98.464 E50.12624
G1 X150.429 Y98.894 E50.14726
G1 X149.915 Y99.263 E50.16831
G1 X149.359 Y99.563 E50.18932
G1 X148.77 Y99.791 E50.21033
G1 X148.156 Y99.943 E50.23136
G1 X147.265 Y100.023 E50.26112
G1 X107.265 Y100.023 E51.59152
G1 X106.634 Y99.983 E51.61255
G1 X106.013 Y99.864 E51.63358
G1 X105.413 Y99.667 E51.65459
G1 X104.841 Y99.396 E51.67564
G1 X104.309 Y99.056 E51.69664
G1 X103.824 Y98.65 E51.71767
G1 X103.394 Y98.187 E51.73869
G1 X103.025 Y97.673 E51.75974
G1 X102.725 Y97.117 E51.78075
G1 X102.497 Y96.528 E51.80176
G1 X102.345 Y95.914 E51.82279
G1 X102.265 Y95.023 E51.85255
G1 X102.265 Y55.023 E53.18295
G1 X102.305 Y54.392 E53.20398
G1 X102.424 Y53.771 E53.22501
G1 X102.621 Y53.171 E53.24602
G1 X102.892 Y52.599 E53.26707
G0 F3600 X103.291 Y52.707
G1 F1800 X103.63 Y52.204 E53.28724
G1 X104.032 Y51.751 E53.30739
G1 X104.49 Y51.354 E53.32755
G1 X104.997 Y51.021 E53.34772
G1 X105.543 Y50.757 E53.36789
G1 X106.119 Y50.568 E53.38806
G1 X106.715 Y50.456 E53.40823
G1 X107.265 Y50.423 E53.42655
G1 X147.265 Y50.423 E54.75696
G1 X147.87 Y50.463 E54.77712
G1 X148.464 Y50.582 E54.79727
G1 X149.038 Y50.778 E54.81745
G1 X149.581 Y51.049 E54.83763
G1 X150.084 Y51.388 E54.85781
G1 X150.537 Y51.79 E54.87795
G1 X150.934 Y52.248 E54.89811
G1 X151.267 Y52.755 E54.91828
G1 X151.531 Y53.301 E54.93846
G1 X151.72 Y53.877 E54.95862
G1 X151.832 Y54.473 E54.97879
G1 X151.865 Y55.023 E54.99711
G1 X151.865 Y95.023 E56.32752
