;FLAVOR:Marlin
;TIME:1060
;Filament used: 0.890228m
;Layer height: 0.2
;MINX:101.145
;MINY:74.593
;MINZ:0.2
;MAXX:152.386
;MAXY:118.216
;MAXZ:4
;Generated with Cura_SteamEngine 4.13.1
M82 ;absolute extrusion mode
G21 ; set units to millimeters
G90 ; use absolute positioning
M82 ; absolute extrusion mode
M104 S200 ; set extruder temp
M140 S60 ; set bed temp
M190 S60 ; wait for bed temp
M109 S200 ; wait for extruder temp
G28 W ; home all without mesh bed level
G80 ; mesh bed leveling
G92 E0.0 ; reset extruder distance position
G1 Y-3.0 F1000.0 ; go outside print area
G1 X60.0 E9.0 F1000.0 ; intro line
G1 X100.0 E21.5 F1000.0 ; intro line
G92 E0.0 ; reset extruder distance position
G92 E0
G92 E0
G1 F2100 E-0.8
;LAYER_COUNT:20
;LAYER:0
M107
G0 F3600 X103.93 Y89.006 Z0.2
;TYPE:SKIRT
G1 F2100 E0
G1 F1800 X104.479 Y88.439 E0.02625
G1 X104.861 Y88.104 E0.04315
G1 X105.587 Y87.509 E0.07437
G1 X106.222 Y87.04 E0.10063
G1 X107.236 Y86.472 E0.13928
G1 X107.636 Y86.286 E0.15395
G1 X109.523 Y83.63 E0.26232
G1 X110.012 Y83.01 E0.28858
G1 X110.562 Y82.443 E0.31485
G1 X110.933 Y82.118 E0.33126
G1 X113.737 Y79.817 E0.4519
G1 X114.372 Y79.348 E0.47816
G1 X115.387 Y78.778 E0.51688
G1 X115.616 Y78.671 E0.52528
G1 X115.702 Y78.539 E0.53052
G1 X116.198 Y77.924 E0.5568
G1 X116.753 Y77.362 E0.58307
G1 X117.362 Y76.86 E0.60932
G1 X118.018 Y76.421 E0.63558
G1 X118.716 Y76.051 E0.66185
G1 X119.447 Y75.753 E0.68811
G1 X120.205 Y75.531 E0.71438
G1 X120.981 Y75.387 E0.74063
G1 X121.768 Y75.322 E0.76689
G1 X122.558 Y75.337 E0.79317
G1 X123.342 Y75.431 E0.81944
G1 X124.112 Y75.605 E0.84569
G1 X124.738 Y75.814 E0.86764
G1 X125.04 Y75.77 E0.87779
G1 X125.829 Y75.748 E0.90405
G1 X126.052 Y75.652 E0.91212
G1 X126.805 Y75.415 E0.93838
G1 X127.401 Y75.292 E0.95862
G1 X127.763 Y75.158 E0.97146
G1 X128.516 Y74.921 E0.99771
G1 X129.573 Y74.722 E1.03349
G1 X130.229 Y74.645 E1.05545
G1 X131.017 Y74.593 E1.08172
G1 X132.047 Y74.645 E1.11602
G1 X132.703 Y74.722 E1.13799
G1 X133.482 Y74.854 E1.16427
G1 X134.513 Y75.158 E1.20002
G1 X135.126 Y75.386 E1.22177
G1 X135.535 Y75.522 E1.23611
G1 X136.275 Y75.796 E1.26235
G1 X136.984 Y76.144 E1.28862
G1 X137.655 Y76.562 E1.31492
G1 X138.279 Y77.045 E1.34116
G1 X138.476 Y77.232 E1.3502
G1 X139.121 Y77.451 E1.37285
G1 X140.119 Y77.931 E1.40969
G1 X143.326 Y79.765 E1.53256
G1 X143.991 Y80.191 E1.55883
G1 X144.609 Y80.682 E1.58508
G1 X144.914 Y80.965 E1.59892
G1 X147.48 Y83.48 E1.71842
G1 X148.015 Y84.061 E1.74469
G1 X148.489 Y84.693 E1.77097
G1 X148.767 Y85.136 E1.78836
G1 X150.521 Y88.159 E1.90461
G1 X150.882 Y88.862 E1.93089
G1 X151.17 Y89.597 E1.95715
G1 X151.348 Y90.21 E1.97838
G1 X152.166 Y93.534 E2.09223
G1 X152.316 Y94.309 E2.11849
G1 X152.386 Y95.096 E2.14477
G1 X152.382 Y95.787 E2.16775
G1 X152.212 Y99.191 E2.28111
G1 X152.133 Y99.977 E2.30738
G1 X151.975 Y100.75 E2.33362
G1 X151.776 Y101.403 E2.35633
G1 X150.627 Y104.652 E2.47095
G1 X150.326 Y105.382 E2.49721
G1 X149.953 Y106.078 E2.52348
G1 X149.624 Y106.58 E2.54344
G1 X147.576 Y109.452 E2.66076
G1 X147.085 Y110.071 E2.68704
G1 X146.535 Y110.637 E2.71329
G1 X146.164 Y110.96 E2.72965
G1 X143.356 Y113.257 E2.85031
G1 X142.72 Y113.726 E2.8766
G1 X141.704 Y114.293 E2.91529
G1 X138.33 Y115.861 E3.03904
G1 X137.926 Y116.025 E3.05354
G1 X137.331 Y116.439 E3.07765
G1 X136.64 Y116.823 E3.10394
G1 X135.915 Y117.135 E3.1302
G1 X135.654 Y117.234 E3.13948
G1 X135.061 Y117.489 E3.16095
G1 X134.321 Y117.763 E3.18719
G1 X133.262 Y118.017 E3.22342
G1 X132.608 Y118.126 E3.24547
G1 X131.824 Y118.216 E3.27172
G1 X130.795 Y118.214 E3.30594
G1 X130.135 Y118.169 E3.32794
G1 X129.351 Y118.075 E3.35421
G1 X128.293 Y117.817 E3.39043
G1 X127.67 Y117.618 E3.41218
G1 X127.209 Y117.445 E3.42856
G1 X126.528 Y117.268 E3.45196
G1 X124.801 Y117.201 E3.50944
G1 X124.146 Y117.352 E3.5318
G1 X123.363 Y117.451 E3.55805
G1 X122.574 Y117.47 E3.5843
G1 X121.786 Y117.41 E3.61058
G1 X121.009 Y117.27 E3.63684
G1 X120.25 Y117.052 E3.66311
G1 X119.517 Y116.758 E3.68938
G1 X118.817 Y116.392 E3.71565
G1 X118.158 Y115.957 E3.74191
G1 X117.546 Y115.458 E3.76817
G1 X117.407 Y115.319 E3.77471
G1 X117.029 Y115.138 E3.78865
G1 X113.82 Y113.308 E3.91152
G1 X113.155 Y112.882 E3.93779
G1 X112.536 Y112.392 E3.96404
G1 X112.234 Y112.112 E3.97774
G1 X109.663 Y109.601 E4.09727
G1 X109.127 Y109.022 E4.12351
G1 X108.652 Y108.391 E4.14978
G1 X108.372 Y107.946 E4.16727
G1 X107.356 Y106.202 E4.2344
G1 X107.238 Y106.145 E4.23876
G1 X106.407 Y105.671 E4.27058
G1 X105.742 Y105.246 E4.29683
G1 X105.123 Y104.755 E4.32311
G1 X104.82 Y104.474 E4.33685
G1 X104.155 Y103.824 E4.36778
G1 X103.619 Y103.244 E4.39405
G1 X103.144 Y102.613 E4.42032
G1 X102.869 Y102.175 E4.43752
G1 X102.413 Y101.393 E4.46762
G1 X102.05 Y100.692 E4.49388
G1 X101.76 Y99.957 E4.52016
G1 X101.581 Y99.345 E4.54137
G1 X101.368 Y98.488 E4.57074
G1 X101.217 Y97.713 E4.597
G1 X101.145 Y96.927 E4.62325
G1 X101.147 Y96.228 E4.6465
G1 X101.19 Y95.345 E4.67591
G1 X101.269 Y94.559 E4.70218
G1 X101.426 Y93.785 E4.72845
G1 X101.622 Y93.137 E4.75096
G1 X101.918 Y92.295 E4.78065
G1 X102.218 Y91.564 E4.80693
G1 X102.589 Y90.868 E4.83316
G1 X102.913 Y90.372 E4.85287
G1 X103.441 Y89.627 E4.88324
G1 X103.93 Y89.006 E4.90953
G0 F3600 X104.244 Y89.255
G1 F1800 X104.781 Y88.704 E4.93512
G1 X105.114 Y88.414 E4.94981
G1 X105.84 Y87.819 E4.98103
G1 X106.46 Y87.363 E5.00662
G1 X107.405 Y86.835 E5.04263
G1 X107.9 Y86.604 E5.0608
G1 X109.849 Y83.862 E5.17269
G1 X110.326 Y83.259 E5.19826
G1 X110.864 Y82.708 E5.22387
G1 X111.187 Y82.428 E5.23809
G1 X113.991 Y80.127 E5.35873
G1 X114.61 Y79.67 E5.38432
G1 X115.557 Y79.141 E5.4204
G1 X115.891 Y78.985 E5.43266
G1 X116.109 Y78.662 E5.44562
G1 X116.604 Y78.072 E5.47124
G1 X117.157 Y77.538 E5.49681
G1 X117.762 Y77.063 E5.52239
G1 X118.414 Y76.655 E5.54797
G1 X119.104 Y76.315 E5.57356
G1 X119.826 Y76.05 E5.59914
G1 X120.571 Y75.861 E5.6247
G1 X121.333 Y75.75 E5.65031
G1 X122.101 Y75.718 E5.67588
G1 X122.869 Y75.767 E5.70147
G1 X123.627 Y75.895 E5.72704
G1 X124.368 Y76.101 E5.75262
G1 X124.685 Y76.226 E5.76396
G1 X125.098 Y76.166 E5.77784
G1 X125.916 Y76.145 E5.80505
G1 X126.417 Y75.948 E5.82296
G1 X127.159 Y75.742 E5.84857
G1 X127.491 Y75.686 E5.85977
G1 X127.902 Y75.533 E5.87436
G1 X128.636 Y75.303 E5.89994
G1 X129.619 Y75.119 E5.9332
G1 X130.275 Y75.042 E5.95517
G1 X131.043 Y74.993 E5.98077
G1 X132.001 Y75.042 E6.01267
G1 X132.657 Y75.119 E6.03464
G1 X133.415 Y75.249 E6.06022
G1 X134.374 Y75.533 E6.09348
G1 X134.987 Y75.761 E6.11524
G1 X135.472 Y75.922 E6.13223
G1 X136.191 Y76.196 E6.15783
G1 X136.877 Y76.543 E6.18339
G1 X137.524 Y76.959 E6.20898
G1 X138.124 Y77.44 E6.23456
G1 X138.269 Y77.584 E6.24135
G1 X138.992 Y77.83 E6.26675
G1 X139.921 Y78.278 E6.30106
G1 X143.128 Y80.112 E6.42393
G1 X143.775 Y80.528 E6.44952
G1 X144.634 Y81.251 E6.48686
G1 X147.2 Y83.766 E6.60636
G1 X147.72 Y84.332 E6.63193
G1 X148.179 Y84.95 E6.65753
G1 X148.421 Y85.337 E6.67271
G1 X150.175 Y88.36 E6.78896
G1 X150.526 Y89.045 E6.81456
G1 X150.804 Y89.762 E6.84013
G1 X150.96 Y90.306 E6.85896
G1 X151.778 Y93.63 E6.97281
G1 X151.922 Y94.385 E6.99838
G1 X151.988 Y95.151 E7.02395
G1 X151.983 Y95.767 E7.04444
G1 X151.813 Y99.171 E7.15779
G1 X151.735 Y99.936 E7.18337
G1 X151.577 Y100.689 E7.20896
G1 X151.399 Y101.269 E7.22914
G1 X150.25 Y104.518 E7.34376
G1 X149.956 Y105.229 E7.36935
G1 X149.59 Y105.906 E7.39495
G1 X149.298 Y106.347 E7.41254
G1 X147.25 Y109.219 E7.52986
G1 X146.772 Y109.822 E7.55545
G1 X146.233 Y110.371 E7.58104
G1 X145.91 Y110.651 E7.59526
G1 X143.102 Y112.948 E7.71592
G1 X142.483 Y113.403 E7.74147
G1 X141.536 Y113.931 E7.77754
G1 X138.162 Y115.499 E7.90128
G1 X137.712 Y115.68 E7.91741
G1 X137.59 Y115.78 E7.92266
G1 X136.948 Y116.203 E7.94823
G1 X136.265 Y116.558 E7.97383
G1 X135.546 Y116.84 E7.99952
G1 X135.496 Y116.866 E8.0014
G1 X134.903 Y117.121 E8.02287
G1 X134.182 Y117.388 E8.04844
G1 X133.197 Y117.622 E8.08211
G1 X132.543 Y117.731 E8.10416
G1 X131.778 Y117.818 E8.12977
G1 X130.823 Y117.815 E8.16154
G1 X130.163 Y117.77 E8.18354
G1 X129.399 Y117.678 E8.20913
G1 X128.414 Y117.436 E8.24287
G1 X127.791 Y117.237 E8.26462
G1 X127.321 Y117.063 E8.28129
G1 X126.598 Y116.87 E8.30618
G1 X124.765 Y116.8 E8.36719
G1 X124.057 Y116.962 E8.39135
G1 X123.293 Y117.055 E8.41694
G1 X122.524 Y117.069 E8.44253
G1 X121.758 Y117.002 E8.4681
G1 X121.003 Y116.857 E8.49367
G1 X120.267 Y116.633 E8.51926
G1 X119.558 Y116.335 E8.54484
G1 X118.883 Y115.965 E8.57044
G1 X118.251 Y115.526 E8.59603
G1 X117.668 Y115.025 E8.6216
G1 X117.227 Y114.79 E8.63822
G1 X114.018 Y112.96 E8.76109
G1 X113.371 Y112.545 E8.78665
G1 X112.514 Y111.826 E8.82386
G1 X109.943 Y109.315 E8.94339
G1 X109.421 Y108.75 E8.96897
G1 X108.961 Y108.133 E8.99457
G1 X108.718 Y107.745 E9.0098
G1 X107.642 Y105.897 E9.08092
G1 X107.437 Y105.798 E9.08849
G1 X106.606 Y105.324 E9.12031
G1 X105.958 Y104.909 E9.14591
G1 X105.099 Y104.188 E9.18321
G1 X104.434 Y103.538 E9.21414
G1 X103.913 Y102.972 E9.23972
G1 X103.453 Y102.356 E9.26529
G1 X103.214 Y101.974 E9.28028
G1 X102.758 Y101.192 E9.31039
G1 X102.406 Y100.508 E9.33598
G1 X102.127 Y99.791 E9.36156
G1 X101.969 Y99.249 E9.38034
G1 X101.756 Y98.392 E9.40971
G1 X101.61 Y97.637 E9.43529
G1 X101.543 Y96.871 E9.46086
G1 X101.547 Y96.247 E9.48162
G1 X101.59 Y95.364 E9.51102
G1 X101.667 Y94.599 E9.5366
G1 X101.823 Y93.846 E9.56217
G1 X102 Y93.27 E9.58221
G1 X102.296 Y92.428 E9.6119
G1 X102.588 Y91.716 E9.63749
G1 X102.953 Y91.039 E9.66308
G1 X103.24 Y90.603 E9.68044
G1 X103.768 Y89.858 E9.71081
G1 X104.244 Y89.255 E9.73636
G0 F3600 X104.558 Y89.503
G1 F1800 X105.083 Y88.97 E9.76124
G1 X105.368 Y88.723 E9.77379
G1 X106.094 Y88.128 E9.80501
G1 X106.697 Y87.685 E9.82989
G1 X107.574 Y87.197 E9.86327
G1 X108.165 Y86.921 E9.88497
G1 X110.175 Y84.093 E10.00037
G1 X110.64 Y83.507 E10.02525
G1 X111.44 Y82.737 E10.06218
G1 X114.244 Y80.436 E10.18282
G1 X114.847 Y79.993 E10.20771
G1 X115.726 Y79.503 E10.24118
G1 X116.154 Y79.303 E10.25689
G1 X116.516 Y78.789 E10.2778
G1 X117.01 Y78.226 E10.30271
G1 X117.56 Y77.72 E10.32757
G1 X118.162 Y77.275 E10.35247
G1 X118.807 Y76.897 E10.37733
G1 X119.489 Y76.59 E10.40221
G1 X120.201 Y76.358 E10.42712
G1 X120.932 Y76.203 E10.45197
G1 X121.676 Y76.126 E10.47685
G1 X122.425 Y76.13 E10.50176
G1 X123.168 Y76.213 E10.52663
G1 X123.898 Y76.376 E10.5515
G1 X124.607 Y76.615 E10.57639
G1 X124.649 Y76.634 E10.57792
G1 X125.155 Y76.562 E10.59492
G1 X125.994 Y76.541 E10.62284
G1 X126.074 Y76.503 E10.62578
G1 X126.779 Y76.253 E10.65066
G1 X127.507 Y76.079 E10.67556
G1 X128.042 Y75.908 E10.69424
G1 X128.756 Y75.685 E10.71912
G1 X129.666 Y75.517 E10.74989
G1 X130.322 Y75.44 E10.77186
G1 X131.069 Y75.392 E10.79676
G1 X131.954 Y75.44 E10.82624
G1 X132.61 Y75.517 E10.84821
G1 X133.347 Y75.644 E10.87308
G1 X134.234 Y75.908 E10.90386
G1 X134.847 Y76.136 E10.92561
G1 X135.408 Y76.322 E10.94527
G1 X136.104 Y76.595 E10.97014
G1 X136.767 Y76.942 E10.99503
G1 X137.39 Y77.357 E11.01992
G1 X137.964 Y77.836 E11.04479
G1 X138.067 Y77.942 E11.04971
G1 X138.155 Y77.967 E11.05275
G1 X138.863 Y78.209 E11.07763
G1 X139.722 Y78.625 E11.10938
G1 X142.929 Y80.459 E11.23225
G1 X143.558 Y80.865 E11.25715
G1 X144.354 Y81.537 E11.2918
G1 X146.92 Y84.052 E11.41131
G1 X147.425 Y84.603 E11.43617
G1 X147.869 Y85.205 E11.46104
G1 X148.075 Y85.538 E11.47407
G1 X149.829 Y88.561 E11.59031
G1 X150.169 Y89.227 E11.61518
G1 X150.436 Y89.926 E11.64007
G1 X150.571 Y90.401 E11.65649
G1 X151.389 Y93.725 E11.77035
G1 X151.529 Y94.46 E11.79524
G1 X151.589 Y95.206 E11.82013
G1 X151.583 Y95.747 E11.83812
G1 X151.413 Y99.151 E11.95148
G1 X151.336 Y99.895 E11.97636
G1 X151.18 Y100.627 E12.00125
G1 X151.021 Y101.136 E12.01899
G1 X149.872 Y104.385 E12.13361
G1 X149.586 Y105.076 E12.15848
G1 X149.227 Y105.732 E12.18335
G1 X148.972 Y106.115 E12.19866
G1 X146.924 Y108.987 E12.31598
G1 X146.458 Y109.572 E12.34086
G1 X145.657 Y110.341 E12.37779
G1 X142.849 Y112.638 E12.49845
G1 X142.246 Y113.08 E12.52332
G1 X141.367 Y113.568 E12.55676
G1 X137.993 Y115.136 E12.6805
G1 X137.499 Y115.334 E12.6982
G1 X137.203 Y115.565 E12.71069
G1 X136.567 Y115.96 E12.73559
G1 X135.893 Y116.284 E12.76047
G1 X135.338 Y116.499 E12.78026
G1 X134.745 Y116.754 E12.80173
G1 X134.043 Y117.012 E12.82661
G1 X133.131 Y117.228 E12.85778
G1 X132.477 Y117.337 E12.87983
G1 X131.733 Y117.42 E12.90473
G1 X130.85 Y117.416 E12.9341
G1 X130.19 Y117.371 E12.9561
G1 X129.447 Y117.28 E12.981
G1 X128.536 Y117.055 E13.01221
G1 X127.913 Y116.856 E13.03396
G1 X127.433 Y116.674 E13.05104
G1 X127.364 Y116.663 E13.05336
G1 X126.674 Y116.474 E13.07715
G1 X124.721 Y116.398 E13.14216
G1 X124.697 Y116.405 E13.14299
G1 X123.967 Y116.571 E13.16789
G1 X123.224 Y116.659 E13.19278
G1 X122.476 Y116.666 E13.21766
G1 X121.732 Y116.594 E13.24252
G1 X120.999 Y116.443 E13.26741
G1 X120.287 Y116.214 E13.29229
G1 X119.603 Y115.911 E13.31717
G1 X118.956 Y115.537 E13.34202
G1 X118.352 Y115.095 E13.36692
G1 X117.87 Y114.657 E13.38858
G1 X117.425 Y114.443 E13.405
G1 X114.216 Y112.613 E13.52787
G1 X113.587 Y112.208 E13.55275
G1 X112.793 Y111.54 E13.58726
G1 X110.222 Y109.029 E13.70679
G1 X109.716 Y108.478 E13.73167
G1 X109.271 Y107.877 E13.75655
G1 X109.064 Y107.543 E13.76962
G1 X107.928 Y105.592 E13.8447
G1 X107.635 Y105.45 E13.85553
G1 X106.804 Y104.976 E13.88735
G1 X106.175 Y104.572 E13.91222
G1 X105.379 Y103.902 E13.94682
G1 X104.714 Y103.252 E13.97775
G1 X104.208 Y102.701 E14.00263
G1 X103.763 Y102.1 E14.02751
G1 X103.56 Y101.772 E14.04033
G1 X103.104 Y100.99 E14.07044
G1 X102.762 Y100.325 E14.09531
G1 X102.493 Y99.627 E14.12019
G1 X102.358 Y99.152 E14.13662
G1 X102.145 Y98.295 E14.16599
G1 X102.003 Y97.561 E14.19086
G1 X101.941 Y96.815 E14.21575
G1 X101.946 Y96.267 E14.23398
G1 X101.989 Y95.384 E14.26338
G1 X102.066 Y94.639 E14.28829
G1 X102.221 Y93.908 E14.31315
G1 X102.377 Y93.402 E14.33076
G1 X102.673 Y92.56 E14.36044
G1 X102.959 Y91.869 E14.38532
G1 X103.316 Y91.212 E14.41019
G1 X103.566 Y90.834 E14.42526
G1 X104.094 Y90.089 E14.45563
G1 X104.558 Y89.503 E14.48049
G0 F3600 X104.872 Y89.752
G1 F1800 X105.621 Y89.032 E14.51505
G1 X106.347 Y88.437 E14.54627
G1 X106.934 Y88.009 E14.57043
G1 X107.743 Y87.56 E14.6012
G1 X108.432 Y87.239 E14.62649
G1 X110.501 Y84.325 E14.74535
G1 X110.954 Y83.757 E14.76952
G1 X111.694 Y83.046 E14.80365
G1 X114.498 Y80.745 E14.92429
G1 X115.084 Y80.316 E14.94845
G1 X115.895 Y79.866 E14.97929
G1 X116.429 Y79.617 E14.99889
G1 X116.493 Y79.506 E15.00315
G1 X116.923 Y78.921 E15.0273
G1 X117.415 Y78.387 E15.05145
G1 X117.963 Y77.91 E15.07561
G1 X118.56 Y77.496 E15.09978
G1 X119.199 Y77.15 E15.12395
G1 X119.871 Y76.876 E15.14808
G1 X120.57 Y76.679 E15.17224
G1 X121.287 Y76.559 E15.19642
G1 X122.012 Y76.518 E15.22057
G1 X122.737 Y76.557 E15.24472
G1 X123.454 Y76.676 E15.26889
G1 X124.153 Y76.873 E15.29305
G1 X124.584 Y77.048 E15.30852
G1 X125.211 Y76.959 E15.32958
G1 X126.03 Y76.94 E15.35683
G1 X126.444 Y76.787 E15.37151
G1 X127.137 Y76.569 E15.39567
G1 X127.721 Y76.454 E15.41547
G1 X128.181 Y76.283 E15.43179
G1 X128.875 Y76.068 E15.45596
G1 X129.713 Y75.914 E15.4843
G1 X130.369 Y75.837 E15.50626
G1 X131.094 Y75.792 E15.53042
G1 X131.907 Y75.837 E15.55751
G1 X132.563 Y75.914 E15.57947
G1 X133.279 Y76.038 E15.60364
G1 X134.095 Y76.283 E15.63198
G1 X134.708 Y76.511 E15.65373
G1 X135.342 Y76.722 E15.67596
G1 X136.015 Y76.995 E15.70011
G1 X136.654 Y77.34 E15.72427
G1 X137.251 Y77.754 E15.74843
G1 X137.799 Y78.23 E15.77257
G1 X137.864 Y78.3 E15.77575
G1 X138.046 Y78.352 E15.78204
G1 X138.733 Y78.588 E15.8062
G1 X139.523 Y78.973 E15.83543
G1 X142.73 Y80.807 E15.95831
G1 X143.34 Y81.201 E15.98246
G1 X144.074 Y81.822 E16.01444
G1 X146.64 Y84.337 E16.13394
G1 X147.13 Y84.874 E16.15812
G1 X147.729 Y85.739 E16.19312
G1 X149.483 Y88.762 E16.30936
G1 X149.812 Y89.409 E16.3335
G1 X150.068 Y90.089 E16.35767
G1 X150.183 Y90.497 E16.37177
G1 X151.001 Y93.821 E16.48562
G1 X151.135 Y94.535 E16.50979
G1 X151.191 Y95.259 E16.53394
G1 X151.184 Y95.727 E16.54951
G1 X151.014 Y99.131 E16.66286
G1 X150.938 Y99.854 E16.68704
G1 X150.783 Y100.563 E16.71118
G1 X150.644 Y101.003 E16.72653
G1 X149.495 Y104.252 E16.84115
G1 X149.216 Y104.922 E16.86529
